/* XPM */
static char * icewm_xpm[] = {
"90 27 454 2",
"  	c None",
". 	c #848484",
"+ 	c #A2A2A2",
"@ 	c #A0A0A0",
"# 	c #9F9F9F",
"$ 	c #959595",
"% 	c #6B6B6B",
"& 	c #717171",
"* 	c #8B8B8B",
"= 	c #979797",
"- 	c #969696",
"; 	c #989898",
"> 	c #838383",
", 	c #4D4D4D",
"' 	c #3E3E3E",
") 	c #7A7A7A",
"! 	c #898989",
"~ 	c #8C8C8C",
"{ 	c #7D7D7D",
"] 	c #343434",
"^ 	c #0E0E0E",
"/ 	c #7E7E7E",
"( 	c #696969",
"_ 	c #2A2A2A",
": 	c #010101",
"< 	c #666666",
"[ 	c #737373",
"} 	c #727272",
"| 	c #2E2E2E",
"1 	c #050505",
"2 	c #5E5E5E",
"3 	c #686868",
"4 	c #656565",
"5 	c #080808",
"6 	c #333333",
"7 	c #555555",
"8 	c #5D5D5D",
"9 	c #5C5C5C",
"0 	c #616062",
"a 	c #626265",
"b 	c #616162",
"c 	c #6F6F6F",
"d 	c #606060",
"e 	c #595959",
"f 	c #363636",
"g 	c #000000",
"h 	c #2F2F2F",
"i 	c #4C4C4C",
"j 	c #535353",
"k 	c #545353",
"l 	c #5A5A5C",
"m 	c #6A6A6F",
"n 	c #7D7D87",
"o 	c #868594",
"p 	c #7C7C89",
"q 	c #67676F",
"r 	c #5B5B5D",
"s 	c #545454",
"t 	c #525252",
"u 	c #929292",
"v 	c #A8A8A8",
"w 	c #616161",
"x 	c #3F3F3F",
"y 	c #0F0F0F",
"z 	c #202020",
"A 	c #414141",
"B 	c #4A4A4A",
"C 	c #58575B",
"D 	c #81808A",
"E 	c #AFAEBC",
"F 	c #C2C1D1",
"G 	c #C1BFD5",
"H 	c #B4B4D2",
"I 	c #9F9FBE",
"J 	c #7F7E93",
"K 	c #5C5C63",
"L 	c #4B4B4C",
"M 	c #4A4A49",
"N 	c #4B4B4B",
"O 	c #4E4E4E",
"P 	c #4F4F4F",
"Q 	c #494949",
"R 	c #C0C0C0",
"S 	c #C5C5C5",
"T 	c #5F5F5F",
"U 	c #454545",
"V 	c #1E1E1E",
"W 	c #030303",
"X 	c #353535",
"Y 	c #404040",
"Z 	c #404041",
"` 	c #555459",
" .	c #9C9BA7",
"..	c #D2D1DA",
"+.	c #E1E1E1",
"@.	c #DEDEE0",
"#.	c #D8D7E0",
"$.	c #CCCCE0",
"%.	c #C1C0E1",
"&.	c #B7B6DF",
"*.	c #9696B9",
"=.	c #6A6A7D",
"-.	c #4C4C51",
";.	c #474747",
">.	c #9E9E9E",
",.	c #808080",
"'.	c #818181",
").	c #888888",
"!.	c #A4A4A4",
"~.	c #444444",
"{.	c #424242",
"].	c #6D6D6D",
"^.	c #909090",
"/.	c #A1A1A1",
"(.	c #919191",
"_.	c #5B5B5B",
":.	c #9B9B9B",
"<.	c #D3D3D3",
"[.	c #999999",
"}.	c #676767",
"|.	c #3C3C3C",
"1.	c #434343",
"2.	c #626262",
"3.	c #777777",
"4.	c #767676",
"5.	c #949494",
"6.	c #292929",
"7.	c #040404",
"8.	c #2C2C2C",
"9.	c #373737",
"0.	c #454448",
"a.	c #8F8D9C",
"b.	c #D7D7DD",
"c.	c #E3E3E3",
"d.	c #E1E1E2",
"e.	c #DADBE0",
"f.	c #CCCDDD",
"g.	c #C7C6E0",
"h.	c #BFBEE2",
"i.	c #B3B3E1",
"j.	c #A0A0CD",
"k.	c #797996",
"l.	c #48474F",
"m.	c #383838",
"n.	c #D6D6D6",
"o.	c #BABABA",
"p.	c #B1B1B1",
"q.	c #D0D0D0",
"r.	c #C9C9C9",
"s.	c #393939",
"t.	c #797979",
"u.	c #C8C8C8",
"v.	c #B9B9B9",
"w.	c #CCCCCC",
"x.	c #B6B6B6",
"y.	c #5A5A5A",
"z.	c #DCDCDC",
"A.	c #AEAEAE",
"B.	c #C3C3C3",
"C.	c #D8D8D8",
"D.	c #646464",
"E.	c #757575",
"F.	c #565656",
"G.	c #AFAFAF",
"H.	c #BBBBBB",
"I.	c #CACACA",
"J.	c #747474",
"K.	c #3A3A3A",
"L.	c #C6C6C6",
"M.	c #D2D2D2",
"N.	c #B0B0B0",
"O.	c #323232",
"P.	c #060606",
"Q.	c #222222",
"R.	c #313132",
"S.	c #63616A",
"T.	c #C6C4D2",
"U.	c #E5E6E5",
"V.	c #E5E5E5",
"W.	c #DCDCE3",
"X.	c #C3C4D9",
"Y.	c #ABADC3",
"Z.	c #B6B7CF",
"`.	c #C3C3E0",
" +	c #B9B8E4",
".+	c #B1B1E4",
"++	c #A6A6DB",
"@+	c #757594",
"#+	c #3E3E45",
"$+	c #7F7F7F",
"%+	c #D7D7D7",
"&+	c #585858",
"*+	c #ADADAD",
"=+	c #D9D9D9",
"-+	c #464646",
";+	c #939393",
">+	c #E6E6E6",
",+	c #D5D5D5",
"'+	c #C1C1C1",
")+	c #3D3D3D",
"!+	c #DFDFDF",
"~+	c #484848",
"{+	c #7B7B7B",
"]+	c #E0E0E0",
"^+	c #A7A7A7",
"/+	c #AAAAAA",
"(+	c #707070",
"_+	c #2D2D2D",
":+	c #1B1B1B",
"<+	c #141414",
"[+	c #242424",
"}+	c #252525",
"|+	c #29292A",
"1+	c #6D6C7A",
"2+	c #C7C6D7",
"3+	c #E3E3E5",
"4+	c #E7E7E7",
"5+	c #DCDCE6",
"6+	c #B5B5D7",
"7+	c #8C8A9D",
"8+	c #8D8BA2",
"9+	c #C0C0D9",
"0+	c #BEBDE7",
"a+	c #B5B4E7",
"b+	c #B0AFE7",
"c+	c #A7A7E1",
"d+	c #79799D",
"e+	c #3A3A41",
"f+	c #8D8D8D",
"g+	c #EBEBEB",
"h+	c #6C6C6C",
"i+	c #1F1F1F",
"j+	c #BEBEBE",
"k+	c #515151",
"l+	c #C4C4C4",
"m+	c #CBCBCB",
"n+	c #ECECEC",
"o+	c #EAEAEA",
"p+	c #262626",
"q+	c #232323",
"r+	c #9D9D9D",
"s+	c #E2E2E2",
"t+	c #1C1C1C",
"u+	c #D1D1D1",
"v+	c #272727",
"w+	c #2B2B2B",
"x+	c #191919",
"y+	c #181818",
"z+	c #1D1D1E",
"A+	c #44434C",
"B+	c #8F8FA6",
"C+	c #BFBFD4",
"D+	c #D9D9E5",
"E+	c #E8E8EB",
"F+	c #EAEAEC",
"G+	c #DADAE7",
"H+	c #BCBBD0",
"I+	c #B7B5CE",
"J+	c #CBCAE6",
"K+	c #C3C3EC",
"L+	c #BAB9EC",
"M+	c #B4B4EC",
"N+	c #B1B0EC",
"O+	c #A8A7E1",
"P+	c #61617A",
"Q+	c #1F1F20",
"R+	c #8E8E8E",
"S+	c #EFEFEF",
"T+	c #131313",
"U+	c #B8B8B8",
"V+	c #D4D4D4",
"W+	c #505050",
"X+	c #F1F1F1",
"Y+	c #EEEEEE",
"Z+	c #151515",
"`+	c #CDCDCD",
" @	c #121212",
".@	c #CECECE",
"+@	c #1A1A1A",
"@@	c #070707",
"#@	c #0B0B0B",
"$@	c #0A0A0A",
"%@	c #151416",
"&@	c #474550",
"*@	c #807F94",
"=@	c #A4A4BF",
"-@	c #C8C8E0",
";@	c #EEEDF4",
">@	c #F6F5F6",
",@	c #F1F1F6",
"'@	c #E9E8F5",
")@	c #DCDAF7",
"!@	c #CCCCF8",
"~@	c #C2C2F7",
"{@	c #BDBCF7",
"]@	c #BAB9F6",
"^@	c #C4C4F8",
"/@	c #8B8BAA",
"(@	c #191A1D",
"_@	c #0A0A09",
":@	c #F3F3F3",
"<@	c #DBDBDB",
"[@	c #DADADA",
"}@	c #F8F8F8",
"|@	c #F9F9F9",
"1@	c #A6A6A6",
"2@	c #313131",
"3@	c #111111",
"4@	c #0C0C0C",
"5@	c #242326",
"6@	c #605D6C",
"7@	c #B9B7D3",
"8@	c #F6F6FB",
"9@	c #FEFEFE",
"0@	c #FDFDFD",
"a@	c #F5F3FD",
"b@	c #E5E3FE",
"c@	c #D5D5FE",
"d@	c #CDCDFE",
"e@	c #C9C9FD",
"f@	c #D1D1FB",
"g@	c #C9CBEA",
"h@	c #6E6F88",
"i@	c #0B0B0F",
"j@	c #101010",
"k@	c #F4F4F4",
"l@	c #DDDDDD",
"m@	c #FFFFFF",
"n@	c #CFCFCF",
"o@	c #F2F2F2",
"p@	c #020202",
"q@	c #26262D",
"r@	c #9492A3",
"s@	c #EBEAF2",
"t@	c #FCFCFD",
"u@	c #F3F1FE",
"v@	c #E6E4FE",
"w@	c #DADAFD",
"x@	c #D6D5FD",
"y@	c #D9D9FC",
"z@	c #CDCEEB",
"A@	c #8C8DAC",
"B@	c #2F2F3E",
"C@	c #878787",
"D@	c #C7C7C7",
"E@	c #161616",
"F@	c #1F1D24",
"G@	c #9291A3",
"H@	c #E7E6EE",
"I@	c #FBFAFE",
"J@	c #F0EFFE",
"K@	c #E7E5FD",
"L@	c #E0DFFD",
"M@	c #E4E3FC",
"N@	c #CFD0EC",
"O@	c #9697B6",
"P@	c #403F4F",
"Q@	c #09090C",
"R@	c #090909",
"S@	c #DEDEDE",
"T@	c #BCBCBC",
"U@	c #636363",
"V@	c #FCFCFC",
"W@	c #25242C",
"X@	c #9C98B0",
"Y@	c #F3F3F9",
"Z@	c #FAF9FE",
"`@	c #F4F3FD",
" #	c #EDECFD",
".#	c #EAE9FD",
"+#	c #E0E1F5",
"@#	c #B5B6D7",
"##	c #80809E",
"$#	c #32323D",
"%#	c #070709",
"&#	c #F0F0F0",
"*#	c #3B3B3B",
"=#	c #8A8A8A",
"-#	c #B2B2B2",
";#	c #EDEDED",
">#	c #282828",
",#	c #0D0D0D",
"'#	c #E9E9E9",
")#	c #8F8F8F",
"!#	c #0A090C",
"~#	c #67647A",
"{#	c #DAD7EF",
"]#	c #F5F3FE",
"^#	c #F7F5FE",
"/#	c #F7F6FE",
"(#	c #F4F4FE",
"_#	c #F2F0FE",
":#	c #EFEEFE",
"<#	c #ECEBFC",
"[#	c #D7D8F0",
"}#	c #A5A7C8",
"|#	c #696985",
"1#	c #2E2E3A",
"2#	c #060608",
"3#	c #858585",
"4#	c #9A9A9A",
"5#	c #BDBDBD",
"6#	c #B5B5B5",
"7#	c #BFBFBF",
"8#	c #101013",
"9#	c #8582A0",
"0#	c #DCD9FB",
"a#	c #EAE7FE",
"b#	c #EBE9FE",
"c#	c #ECE9FF",
"d#	c #EBEAFD",
"e#	c #D9DAF2",
"f#	c #C2C4E0",
"g#	c #9C9BBB",
"h#	c #56556A",
"i#	c #1C1C24",
"j#	c #060607",
"k#	c #212121",
"l#	c #B7B7B7",
"m#	c #303030",
"n#	c #1D1D1D",
"o#	c #0B0A0D",
"p#	c #636179",
"q#	c #B6B4E1",
"r#	c #CDCBF7",
"s#	c #CFCEF8",
"t#	c #CECDF4",
"u#	c #BDBEE6",
"v#	c #AAACD2",
"w#	c #9394B1",
"x#	c #67667B",
"y#	c #31303A",
"z#	c #0B0B0D",
"A#	c #171717",
"B#	c #030304",
"C#	c #2D2C35",
"D#	c #7E7C95",
"E#	c #A8A6C9",
"F#	c #A7A7CD",
"G#	c #9B9CC1",
"H#	c #8A88A7",
"I#	c #706E83",
"J#	c #44434E",
"K#	c #18171B",
"L#	c #060507",
"M#	c #080809",
"N#	c #343338",
"O#	c #5C5A61",
"P#	c #5F5D67",
"Q#	c #55535C",
"R#	c #3F3C43",
"S#	c #1F1E21",
"T#	c #0A0A0B",
"U#	c #ABABAB",
"    . + @ @ @ @ @ @ # # # # # # # # # # # # # # # # # # # # # # # # # # # # # # # # # # # # # # # # # # # # # # # # # # # # # # # # # # # # # # # # # # # # # # # # # # # # # # $ % ",
"  & * = = = = = = = = = = = = = = = = = = = = = = = = = = = = = = = = = - - - - - - - - - - - - - - - - - - - - - - - - - - - - - - - - - - - - - - - - - - - - - - - - - - ; > , ' ",
"  ) ! * * * * * * * * * * * * * * * * * * * * * * * * * * * * * * * * * * * * * * * * * * * * * * * * * * * * * * * * * * * * * * * * * * * * * * * * * * * * * * * * * * ~ { ] ^   ",
"  & { / / / / / / / / / / / / / / / / / / / / / / / / / / / / / / / / / / / / / / / / / / / / / / / / / / / / / / / / / / / / / / / / / / / / / / / / / / / / / / / / / { ( _ :     ",
"  < [ [ } } [ } [ [ } [ [ } } [ } [ [ } [ [ } } [ } [ [ } [ [ } } [ } } [ } } [ } } [ } } [ } } [ } } [ } } [ } } [ } } [ } } [ } } [ } } } } } [ } } [ } } [ } } [ } [ < | 1       ",
"  2 ( 3 3 3 3 3 3 3 3 3 3 3 3 3 3 3 3 3 3 3 3 3 3 3 3 3 3 3 3 3 3 3 3 3 3 3 3 3 3 3 3 3 3 3 3 3 3 3 3 3 3 3 3 3 3 3 3 3 3 3 3 3 3 3 3 3 3 3 3 3 3 3 3 3 3 3 3 3 3 3 3 4 ] 5         ",
"6 7 8 9 9 9 9 9 9 9 9 8 0 a b 8 9 9 9 9 9 9 9 9 9 9 9 9 9 9 9 9 9 9 9 9 9 9 9 9 9 9 9 9 9 9 9 9 9 9 9 9 9 2 < c d 9 9 9 9 9 9 9 9 9 9 9 9 9 9 9 9 9 9 9 9 9 9 9 9 8 e f 1 g         ",
"h i j j j j j j j k l m n o p q r s j j j j j j j j j j j j j j j j j j j j t j j j j j j t j j j j j j t 8 u v w t j j j t t j j j j j j j t t j j j j j j j j j j x y g g         ",
"z A B B B B B B B C D E F G H I J K L M B B B B B B B B N , O i i i B B B N O P , B Q B N i N i O i B B Q < R S T Q Q Q B , O O N B B B B N O O , B Q B B B B B B U V W g           ",
"^ X Y x x x x Z `  ...+.@.#.$.%.&.*.=.-.Z x x x x x x ;.} # >.,.'.).t x i ) >.!.- ( ~.{.].^.c ~ /.(.9 Y _.:.<.<.[.}.|.1.2.- !.>.3.N x x B 4.>.!.5.4 1.x x x x x Y 6.7.g g           ",
"5 8.9.9.9.9.9.0.a.b.c.c.d.e.f.g.h.i.j.k.l.m.9.9.f 9.9.d R n.o.p.q.r.9 s.t.r.u.v.w.x.y.' 5.z.v.A.B.C.:.1.D.x.z.z.v.E.6 F.G.w.H.I.u.J.s.K.[ L.L.H.M.N.s 9.9.9.9.9.O.^ : g             ",
"P.Q.h h h h R.S.T.U.V.V.W.X.Y.Z.`. +.+++@+#+h | | | O.$+c./., ( %+M.&+|.*+=+[ -+;+c.$+s.- >+v Q 2 ,+'+P m.( r.r.2.)+O.$+!+5.~+{+]+^+9.x /+%+(+Q /+!+[ h | | | _+:+W g g             ",
"W <+[+}+}+}+|+1+2+3+4+4+5+6+7+8+9+0+a+b+c+d+e+}+}+}+8.f+g+h+i+K.j+,+k+-+l+m+s.[+&+n+; X 5.o+h+p+Q.m+r.k+q+B B.l+' q+| r+s+4 t+B u+S 6 N l+w.] v+& o+).w+}+}+q+x+P.g g               ",
": 5 y+t+t+:+z+A+B+C+D+E+F+G+H+I+J+K+L+M+N+O+P+Q+:+t+q+R+S+2.T+w+U+C.B ~.r.V+9 W+[ X+r+| u Y+9 t+Z+`+m+B y+1.S L.f x+p+!.c.y. @' .@`+8.Q I.w.Q.t+w S+~ Q.:++@T+P.g g g               ",
"g : @@#@$@$@$@%@&@*@=@-@;@>@,@'@)@!@~@{@]@^@/@(@_@$@Z+f+:@9 1 :+x.<@Y s.I.:@,+u+[@}@# z ^.|@t #@P.<..@x 5 K.m+w._ 5 :+1@n+t 7.2@u+M.}+' `+u+3@4@&+|@*  @$@5 W g g g g               ",
"g g g g g g g g 1 5@6@7@8@9@0@a@b@c@d@e@f@g@h@i@g g j@* k@y.g <+U+l@s.O.I.s+( 2 T w )+y ^.m@, : g %+n@m.: m..@q.p+g y+^+o@W+g w+<.<.[+m.`+V+5 p@j 0@! 5 g g g g g g g               ",
"g g g g g g g g : q@r@s@9@9@t@u@v@w@x@y@z@A@B@W g g y C@:@8 g :+R l@s.| D@<.y+W x+y.X ^ ^.m@, : g %+n@m.: m..@q.p+g E@/.k@j g | C.n@Q.] r.n.^ W e 0@> @@g g g g g g                 ",
"g g g g g g g g F@G@H@0@9@9@I@J@K@L@M@N@O@P@Q@g g g R@[ S+$+4@m.S@l@K.Q.T@<@8.g B c.> <+^.m@, : g %+n@m.: 9.`+<.v+g 3@f+:@U@g )+g+j+t+[+T@l@p+p@{+V@c W g g g g g g                 ",
"g g g g g g p@W@X@Y@0@0@t@Z@`@ #.#+#@###$#%#g g g g : 1.M.c.U+T@&#l@*#j@=#g+-#=#r.;#D.^ ^.m@, : g =+q.s.: >#v.&#!.{.7.i %+m+(.U+g+t.#@,#> '#-#)#<@,+' g g g g g g g                 ",
"g g g g g g !#~#{#]#^#/#(#_#:#<#[#}#|#1#2#g g g g g g 3@9 *+/+3#L.l@*#W 2@4#5#T@o.3#z 5 }.6#m.: g >.$ 6.: #@( 7#H.y.: Z+h+o.5#H.=#6.: p@_ 5.T@T@6#}.y g g g g g g                   ",
"g g g g g g 8#9#0#K@a#b#c#d#e#f#g#h#i#j#g g g g g g : 6.{+-+k#[+l#z.m.g 1 V 9.' m#E@W : <+[+#@g g i+n#5 g :  @O.s.x+g : y | ' ] y+7.g g 7.t+X )+_ j@: g g g g g g                   ",
"  g g g g g o#p#q#r#s#t#u#v#w#x#y#z#: g g g g g g g g P c.(+A#X u+u+p+g g g : p@g g g g g g g g g g g g g g g g : g g g g g p@: g g g g g g : p@g g g g g g g g                     ",
"  g g g g g B#C#D#E#F#G#H#I#J#K#L#: g g g g g g g g g 6 l+u+>.x.;#- <+g g g g g g g g g g g g g g g g g g g g g g g g g g g g g g g g g g g g g g g g g g g g g                     ",
"  g g g g g g M#N#O#P#Q#R#S#T#: g g g g g g g g g g g $@k+U#5#o.! m#W g g g g g g g g g g g g g g g g g g g g g g g g g g g g g g g g g g g g g g g g g g g g g                     ",
"  g g g g g g g p@1 1 7.p@: g g g g g g g g g g g g g g W  @q+V @@: g g g g g g g g g g g g g g g g g g g g g g g g g g g g g g g g g g g g g g g g g g g g g g                     ",
"  g g g g g g g g g g g g g g g g g g g g g g g g g g g g g : : g g g g g g g g g g g g g g g g g g g g g g g g g g g g g g g g g g g g g g g g g g g g g g g                       ",
"  g g g g g g g g g g g g g g g g g g g g g g g g g g g g g g g g g g g g g g g g g g g g g g g g g g g g g g g g g g g g g g g g g g g g g g g g g g g g g                         "};
