/* XPM */
static char * icewm_xpm[] = {
"50 22 266 2",
"  	c None",
". 	c #292929",
"+ 	c #282929",
"@ 	c #272929",
"# 	c #272A2C",
"$ 	c #272A2D",
"% 	c #282A2D",
"& 	c #282B31",
"* 	c #282A2E",
"= 	c #282A2F",
"- 	c #28292B",
"; 	c #2B2B2B",
"> 	c #2A2B2B",
", 	c #2A2B2D",
"' 	c #292C30",
") 	c #292D33",
"! 	c #292D35",
"~ 	c #292E38",
"{ 	c #292F3B",
"] 	c #29303C",
"^ 	c #28303E",
"/ 	c #29303F",
"( 	c #293141",
"_ 	c #29313F",
": 	c #2A303D",
"< 	c #2A2E37",
"[ 	c #2A2D34",
"} 	c #2A2C30",
"| 	c #2C2C2C",
"1 	c #2B2C2C",
"2 	c #2B2C2E",
"3 	c #2A2D31",
"4 	c #2A3243",
"5 	c #2A3448",
"6 	c #29364F",
"7 	c #293752",
"8 	c #283755",
"9 	c #283857",
"0 	c #293959",
"a 	c #29395A",
"b 	c #293857",
"c 	c #2A354B",
"d 	c #2A3140",
"e 	c #2B2F36",
"f 	c #2B2D31",
"g 	c #2B2C2D",
"h 	c #272727",
"i 	c #252728",
"j 	c #25282E",
"k 	c #252B35",
"l 	c #252E42",
"m 	c #25334E",
"n 	c #25365A",
"o 	c #243962",
"p 	c #243B6B",
"q 	c #243D70",
"r 	c #233E72",
"s 	c #233E73",
"t 	c #243F75",
"u 	c #FFFFFF",
"v 	c #243D6F",
"w 	c #253861",
"x 	c #262D3C",
"y 	c #262A32",
"z 	c #26282A",
"A 	c #262727",
"B 	c #212121",
"C 	c #212327",
"D 	c #212632",
"E 	c #212B40",
"F 	c #213257",
"G 	c #21396B",
"H 	c #213E7B",
"I 	c #214286",
"J 	c #21448D",
"K 	c #214692",
"L 	c #21458F",
"M 	c #21448E",
"N 	c #080E1B",
"O 	c #21448B",
"P 	c #213E7A",
"Q 	c #213660",
"R 	c #212D47",
"S 	c #212734",
"T 	c #212328",
"U 	c #212123",
"V 	c #1C1C1C",
"W 	c #1C1C20",
"X 	c #1C2029",
"Y 	c #1C2639",
"Z 	c #1C2F53",
"` 	c #1E3972",
" .	c #1E438E",
"..	c #1E499F",
"+.	c #1F4CA7",
"@.	c #1F499F",
"#.	c #1E3A72",
"$.	c #1D2E51",
"%.	c #1C2537",
"&.	c #1C2027",
"*.	c #1C1C1E",
"=.	c #151515",
"-.	c #15161B",
";.	c #151D2A",
">.	c #172542",
",.	c #193367",
"'.	c #1B418D",
").	c #1D4BAA",
"!.	c #1E53BD",
"~.	c #1D4AA4",
"{.	c #1D49A2",
"].	c #1C4496",
"^.	c #1A3A7B",
"/.	c #182D56",
"(.	c #172137",
"_.	c #151A23",
":.	c #151618",
"<.	c #0F0F0F",
"[.	c #0F0F11",
"}.	c #0F121A",
"|.	c #101A2D",
"1.	c #13274D",
"2.	c #173778",
"3.	c #1A479F",
"4.	c #1D51BB",
"5.	c #1B459D",
"6.	c #1B469D",
"7.	c #1B469E",
"8.	c #1A4395",
"9.	c #183A7F",
"0.	c #152C5B",
"a.	c #121F39",
"b.	c #101520",
"c.	c #0F1114",
"d.	c #0B0B0B",
"e.	c #0B0C0D",
"f.	c #0C0F18",
"g.	c #0E1A31",
"h.	c #112854",
"i.	c #163981",
"j.	c #1B4DB3",
"k.	c #1A47A4",
"l.	c #194297",
"m.	c #173E8E",
"n.	c #173D8B",
"o.	c #183F8F",
"p.	c #173A81",
"q.	c #132C5E",
"r.	c #0F1D39",
"s.	c #0D1320",
"t.	c #0B0D10",
"u.	c #0A0A0A",
"v.	c #0A0B0D",
"w.	c #0B0F19",
"x.	c #0D1931",
"y.	c #122857",
"z.	c #163982",
"A.	c #1947A4",
"B.	c #15377C",
"C.	c #13326F",
"D.	c #14326F",
"E.	c #153677",
"F.	c #173B86",
"G.	c #194398",
"H.	c #163A82",
"I.	c #132C5F",
"J.	c #0F1D3B",
"K.	c #0C1220",
"L.	c #0A0B0E",
"M.	c #0A0C0F",
"N.	c #0B101B",
"O.	c #16387F",
"P.	c #1A48A7",
"Q.	c #184194",
"R.	c #15377B",
"S.	c #132D61",
"T.	c #112754",
"U.	c #112755",
"V.	c #132E65",
"W.	c #163A83",
"X.	c #0F1E3D",
"Y.	c #0A0D12",
"Z.	c #0B101A",
"`.	c #184299",
" +	c #19459E",
".+	c #14326E",
"++	c #102349",
"@+	c #122B5D",
"#+	c #153576",
"$+	c #173E8D",
"%+	c #132E64",
"&+	c #0C1321",
"*+	c #0A0D11",
"=+	c #184195",
"-+	c #163B87",
";+	c #143270",
">+	c #122A5A",
",+	c #11254E",
"'+	c #132D62",
")+	c #15377A",
"!+	c #183F90",
"~+	c #19459D",
"{+	c #1A47A2",
"]+	c #173C88",
"^+	c #0F1F3E",
"/+	c #0C1322",
"(+	c #184297",
"_+	c #173D8C",
":+	c #16387C",
"<+	c #14306B",
"[+	c #14316C",
"}+	c #173B85",
"|+	c #184093",
"1+	c #173C87",
"2+	c #0A0D13",
"3+	c #0B0F18",
"4+	c #0D182D",
"5+	c #153475",
"6+	c #19449B",
"7+	c #173E8C",
"8+	c #132D63",
"9+	c #0F1E3C",
"0+	c #0C1320",
"a+	c #0A0B0C",
"b+	c #0B0F16",
"c+	c #0D162A",
"d+	c #143370",
"e+	c #194399",
"f+	c #19449A",
"g+	c #194298",
"h+	c #122B5E",
"i+	c #0E1C37",
"j+	c #0C121F",
"k+	c #0C1423",
"l+	c #0F1F40",
"m+	c #1946A0",
"n+	c #1A46A1",
"o+	c #184193",
"p+	c #153679",
"q+	c #112753",
"r+	c #0E1931",
"s+	c #0A0A0B",
"t+	c #0A0C10",
"u+	c #16397F",
"v+	c #102043",
"w+	c #0D1526",
"x+	c #0B0E15",
"y+	c #0B0E14",
"z+	c #0E1B36",
"A+	c #132F67",
"B+	c #102247",
"C+	c #0D172C",
"D+	c #0E1A32",
"E+	c #102143",
"F+	c #122855",
"G+	c #143069",
"H+	c #0B111C",
"I+	c #0D1527",
"J+	c #0E1B34",
"K+	c #102246",
"L+	c #102144",
"M+	c #0D172B",
"N+	c #0B111B",
"O+	c #0C1425",
"P+	c #0D1628",
"Q+	c #0B0F17",
"            . . . . . . . . . . . . . + + + @ # $ % & & * & & = * * - + + . . . . . . . . . . . . . ",
"            ; ; ; ; ; ; ; ; ; ; ; > > , ' ) ! ~ { ] ^ / ( ( _ _ : < [ } , > ; ; ; ; ; ; ; ; ; ; ; ; ",
"            | | | | | | | | | | 1 2 3 < : 4 5 6 7 8 8 9 0 a 0 b 7 c d e f g | | | | | | | | | | | | ",
"            h h h h h h h h h h i j k l m n o p q r s s t u u u v w m x y z A h h h h h h h h h h h ",
"            B B B B B B B B B B C D E F G H I J K K L M N u u u O P Q R S T U B B B B B B B B B B B ",
"            V V V V V V V V V W X Y Z `  ...+.u u u u u N u u u @. .#.$.%.&.*.V V V V V V V V V V V ",
"            =.=.=.=.=.=.=.=.=.-.;.>.,.'.).u !.N u u u u ~.N N N {.].^./.(._.:.=.=.=.=.=.=.=.=.=.=.=.",
"            <.<.<.<.<.<.<.<.[.}.|.1.2.3.u u N 4.N N N N N 5.6.u 7.8.9.0.a.b.c.<.<.<.<.<.<.<.<.<.<.<.",
"            d.d.d.d.d.d.d.d.e.f.g.h.i.u u u N j.k.l.m.n.o.N u u u l.p.q.r.s.t.d.d.d.d.d.d.d.d.d.d.d.",
"            u.u.u.u.u.u.u.u.v.w.x.y.z.u u u N A.o.B.C.D.E.F.N u u G.H.I.J.K.L.u.u.u.u.u.u.u.u.u.u.u.",
"            u.u.u.u.u.u.u.u.M.N.u u O.u u N P.Q.R.S.T.U.V.R.N u u u W.S.X.K.Y.u.u.u.u.u.u.u.u.u.u.u.",
"            u.u.u.u.u.u.u.u.v.Z.u u N `.u N  +n..+U.++++@+#+$+N u u F.%+X.&+*+u.u.u.u.u.u.u.u.u.u.u.",
"            u.u.u.u.u.u.u.u.v.Z.u u N =+u N `.-+;+>+,+T.'+)+!+~+{+~+]+V.^+/+M.u.u.u.u.u.u.u.u.u.u.u.",
"            u.u.u.u.u.u.u.u.M.Z.N N N !+u N (+_+:+D.<+[+#+}+|+N u u 1+V.^+/+2+u.u.u.u.u.u.u.u.u.u.u.",
"            u.u.u.u.u.u.u.u.v.3+4+,+5+u u N 6+=+$+]+]+1+7+|+N u u u F.8+9+0+2+u.u.u.u.u.u.u.u.u.u.u.",
"            u.u.u.u.u.u.u.u.a+b+c+++d+u u u N ~+e+G.f+g+e+N u u u 6+W.h+i+j+M.u.u.u.u.u.u.u.u.u.u.u.",
"            u.u.u.u.u.u.u.u.a+2+k+l+8+W.u u N m+~+ +n+ +N u u u u o+p+q+r+N.M.u.u.u.u.u.u.u.u.u.u.u.",
"            u.u.u.u.u.u.u.u.s+t+N.r+,+[+u N f+~+N N N N u 6+G.o+$+u+8+v+w+x+L.u.u.u.u.u.u.u.u.u.u.u.",
"            u.u.u.u.u.u.u.u.u.v.y+/+z+,+A+p+F.u u u u u ]+N N N d+I.B+C+N.t+u.u.u.u.u.u.u.u.u.u.u.u.",
"            u.u.u.u.u.u.u.u.u.u.M.x+/+D+E+F+8+G+u u u u u N u u u J.C+H+2+L.u.u.u.u.u.u.u.u.u.u.u.u.",
"            u.u.u.u.u.u.u.u.u.u.u.M.b+j+I+J+X.v+K+B+B+L+v+N u u M+/+Z.2+L.u.u.u.u.u.u.u.u.u.u.u.u.u.",
"            u.u.u.u.u.u.u.u.u.u.u.u.v.2+b+N+&+O+O+I+P+w+k+N u u Q+x+M.u.u.u.u.u.u.u.u.u.u.u.u.u.u.u."};
