/* XPM */
static char * icewm_xpm[] = {
"90 30 237 2",
"  	c None",
". 	c #50566A",
"+ 	c #565C6B",
"@ 	c #4C5265",
"# 	c #5A5D6A",
"$ 	c #494F61",
"% 	c #757575",
"& 	c #7A7A7A",
"* 	c #76787B",
"= 	c #828383",
"- 	c #838489",
"; 	c #8B8C8C",
"> 	c #929292",
", 	c #989A9D",
"' 	c #999CA5",
") 	c #6C7283",
"! 	c #7A7E8E",
"~ 	c #2A2A2A",
"{ 	c #333333",
"] 	c #3A3A3A",
"^ 	c #434343",
"/ 	c #4A4A4B",
"( 	c #535353",
"_ 	c #575758",
": 	c #5B5B5B",
"< 	c #616161",
"[ 	c #939599",
"} 	c #818695",
"| 	c #4F525C",
"1 	c #6C707D",
"2 	c #2E2E2E",
"3 	c #666768",
"4 	c #8B8C90",
"5 	c #717481",
"6 	c #444854",
"7 	c #5B6375",
"8 	c #2C2C2C",
"9 	c #4F5154",
"0 	c #4B4D54",
"a 	c #272727",
"b 	c #2B2B2B",
"c 	c #2E2E31",
"d 	c #C3C4C5",
"e 	c #D3D4D5",
"f 	c #B7B8B9",
"g 	c #7C7E81",
"h 	c #6A6B6B",
"i 	c #757A85",
"j 	c #3D424B",
"k 	c #232323",
"l 	c #ECEDEE",
"m 	c #FEFEFE",
"n 	c #AEB1B5",
"o 	c #383D43",
"p 	c #2D3034",
"q 	c #5E5F60",
"r 	c #636673",
"s 	c #3C3F49",
"t 	c #1F1F1F",
"u 	c #9CA4AF",
"v 	c #676B74",
"w 	c #434652",
"x 	c #474B58",
"y 	c #1B1B1B",
"z 	c #232324",
"A 	c #26282A",
"B 	c #BFC1C3",
"C 	c #F6F8FA",
"D 	c #5E728E",
"E 	c #959EAC",
"F 	c #E3E4E4",
"G 	c #BCBEC1",
"H 	c #B2B4B7",
"I 	c #333360",
"J 	c #AAE3FF",
"K 	c #E3A965",
"L 	c #44446B",
"M 	c #E5AD6C",
"N 	c #31363C",
"O 	c #161616",
"P 	c #E7E9EB",
"Q 	c #D4DAE3",
"R 	c #476288",
"S 	c #BAC2CC",
"T 	c #1F2A3C",
"U 	c #252A30",
"V 	c #343485",
"W 	c #C9FFFF",
"X 	c #44448E",
"Y 	c #7E8083",
"Z 	c #343843",
"` 	c #111111",
" .	c #A5B4C9",
"..	c #4E698F",
"+.	c #CFD4DB",
"@.	c #1C2E49",
"#.	c #202A39",
"$.	c #3C3C8A",
"%.	c #3E4043",
"&.	c #48488F",
"*.	c #526076",
"=.	c #AF714C",
"-.	c #0D0D0D",
";.	c #C4C8CD",
">.	c #8593A9",
",.	c #6E84A5",
"'.	c #7C91B0",
").	c #BCC5D4",
"!.	c #788DAD",
"~.	c #7789A3",
"{.	c #A2AEC1",
"].	c #193053",
"^.	c #60A7E3",
"/.	c #FFE2A5",
"(.	c #633737",
"_.	c #64A9E3",
":.	c #FFE4AC",
"<.	c #653C3C",
"[.	c #84C5FF",
"}.	c #FFFFC5",
"|.	c #893C3C",
"1.	c #8C418C",
"2.	c #6AACE5",
"3.	c #FFFFC9",
"4.	c #8F4848",
"5.	c #0A0A0A",
"6.	c #080C12",
"7.	c #6A7B92",
"8.	c #597195",
"9.	c #3A5782",
"0.	c #3E587F",
"a.	c #B2BBCA",
"b.	c #7084A3",
"c.	c #0A2449",
"d.	c #0A1629",
"e.	c #131313",
"f.	c #832C2C",
"g.	c #282859",
"h.	c #A4C4A4",
"i.	c #5A2929",
"j.	c #E5AF70",
"k.	c #1E202E",
"l.	c #3586C6",
"m.	c #FFC37D",
"n.	c #A6E3FF",
"o.	c #54A2E2",
"p.	c #FFFFE4",
"q.	c #A55D2E",
"r.	c #CFD1D3",
"s.	c #E2E6EA",
"t.	c #657894",
"u.	c #0A2753",
"v.	c #DADEE4",
"w.	c #B4BFD3",
"x.	c #314E79",
"y.	c #061D40",
"z.	c #091424",
"A.	c #020202",
"B.	c #1D1D7C",
"C.	c #C4FFFF",
"D.	c #E3A760",
"E.	c #A96337",
"F.	c #5DA6E2",
"G.	c #0F1013",
"H.	c #03060A",
"I.	c #A3ADBB",
"J.	c #304360",
"K.	c #3B5273",
"L.	c #6A7E9C",
"M.	c #637CA2",
"N.	c #3F5D89",
"O.	c #0A1C38",
"P.	c #09111E",
"Q.	c #232356",
"R.	c #6D4848",
"S.	c #486DAE",
"T.	c #E4FFFF",
"U.	c #C98D43",
"V.	c #EFF2F6",
"W.	c #516683",
"X.	c #9097A7",
"Y.	c #F0F2F3",
"Z.	c #72829B",
"`.	c #6E819E",
" +	c #8798B1",
".+	c #092042",
"++	c #CA8F48",
"@+	c #914B4B",
"#+	c #365482",
"$+	c #C3C9D1",
"%+	c #5B6C85",
"&+	c #050A13",
"*+	c #592626",
"=+	c #3E67AA",
"-+	c #415B81",
";+	c #050D19",
">+	c #8AC8FF",
",+	c #ABAEB0",
"'+	c #ACB8CB",
")+	c #BEC9D9",
"!+	c #3C89C8",
"~+	c #C8883A",
"{+	c #FFCA8F",
"]+	c #295AA4",
"^+	c #2E2E83",
"/+	c #28374D",
"(+	c #0E2951",
"_+	c #092A5D",
":+	c #0E3267",
"<+	c #8E9FB8",
"[+	c #07224A",
"}+	c #051124",
"|+	c #C3E2A2",
"1+	c #683F3F",
"2+	c #22242B",
"3+	c #06152B",
"4+	c #051B3B",
"5+	c #072046",
"6+	c #1A3359",
"7+	c #D9DFE9",
"8+	c #17177A",
"9+	c #853333",
"0+	c #6262A8",
"a+	c #7C1D1D",
"b+	c #16181F",
"c+	c #05080D",
"d+	c #051731",
"e+	c #263752",
"f+	c #9EABC4",
"g+	c #16335E",
"h+	c #0E213C",
"i+	c #13141B",
"j+	c #072A5E",
"k+	c #072654",
"l+	c #191A25",
"m+	c #051835",
"n+	c #12192F",
". . . . + . . . . . . . . . . . @ . . . . . . . . . . . . . . . . . . . . . . . . . . . . . + . . . . . . . . . . . . . . + . . . . . . . . # . . . . . # . . . $ @ . . . . . . . . ",
"% % % % % % % % % % % & % % % % % % % % * % % % % % % & & & % & % & & & & % & & & & & & & & & & & & & & = & & = = = = = = = - = = ; ; ; ; ; ; > ; > > > > > , ' ) # ! ~ ~ ~ ~ ~ ~ ~ ",
"{ ] ] ] ] { ] ] { ] ] ] ] ] ] ] ] ] ] ] ] ] ] ] ] ] ] ] ] ] ] ] ] ] ] ] ] ] ] ] ] ^ ] ] ] ] ^ ^ ^ ^ ^ ^ ^ ^ ^ ^ ^ / / / / ( ( / ( ( ( ( _ _ : : : : : < < < % = [ } # | 1 2 2 2 2 2 ",
"{ ] { { { ] { { { ] { { { { ] { ] { ] ] ] ] ] { ] ] ] ] ] ] ] ] ] ] ] ] ] ] ] ] ] ] ] ] ] ] ] ] ] ] ^ ^ ^ ^ ^ ^ ^ / ^ / / / / / / ( ( ( ( _ _ _ : : : : : < < 3 % & 4 5 6 7 8 8 8 8 ",
"{ { { { { { { { { { { { { { { { ] { { { { { { { { { { ] { { { { { ] { { ] { ] { ] { ] ] ] { ] ] ] ] ] ] ] ^ ^ ^ ] ^ ^ ^ / / / / / / / 9 ( ( ( ( _ _ _ : : < : < < < % ; ! 0 # a a a ",
"{ b c c c { b { { c { < , d e f g ^ { { { { { { { { { { { { { { { { { { { { { { { { { { { { { { { ] ] ] ] ] ] ] ^ ^ ^ ^ ^ ^ ^ ^ / / / 9 / 9 ( ( ( ( _ _ _ : : : < < < h - i j # k k ",
"b { b { c c c { c c 3 l m m m m m n o p { c c c c { c c c { c { { b { { c { { { { b { b { c { { { { { { { ] ] ] ] ] ^ ^ ^ ^ ^ ^ / ^ / / / / 9 ( ( ( ( ( _ _ : : : : q < h - r s t t ",
"b b b b b b b b b b > m m m m m m u v [ : ] { o : b b b c b b b b b b b b b b b b { { { { { c c { { { { { { { ] ] ] ] ] ] ] ^ ^ ^ ^ ^ / / / / / / ( / ( ( _ _ _ : : : q < h - w x y ",
"z b z b b z A b b { B m m m m m C D E m F G H d l A b b b b A b b b b b b b A b b I J K { { b b { { { b { { b ] { ] ] ] ] ] ] ^ L J M ^ / / / / / ( / ( ( ( ( ( : : : : q q & v N O ",
"b b z b z b z A z ( P m m m m m Q R S m m m m m m T U A z z z b b z z z b A z A b V W K { c b b A b b c b b { { { { ] ] ] ] ] ^ X W M / / ^ ^ / / / / ( / ( ( ( _ _ : : : q h Y Z ` ",
"z z A z z A z z A & m m m m m m  ...l m m m m m +.@.#.A z A z z z b b b c b { b ] $.W M ^ ] c U { { { { ] { b { { { ] ] %.] ] ^ &.W M / ^ ^ / / ^ / / / ( ( ( ( ( ( _ : : : *.=.| -.",
"z z z z z z z z c , ;.>.,.'.).C !.~.m m m m m m {.].#.A z z z z b b ^.m m m /.(._.m m m m :.<.p [.m m m }.|.] ] ] _.}.1.W m K 2.m m m m 3.4./ / / / / / / ( ( ( _ _ _ : : : *.% r 5.",
"5.5.5.5.5.5.5.5.6.j 7 7.~.8.9...0.a.m m m m m m b.c.d.6.5.5.5.e.e.[.}.f.b g.h.i.c X W j.(.k.y l.m.z z g.n./.i.z y o.p.F q.b y b $.W j.] b e.e.5.5.e.e.y e.y y b b b ] ] / : : h i 5.",
"5.5.5.5.5.5.5.5.%.r.m m m m s.t.u.} v.C m C s.w.x.y.z.6.5.5.A.e.B.C.D.] { A z b { $.W M ] U y z y y z b l.p.E.A b F.m M ] A z b $.W j.] b y e.G.5.5.5.5.5.5.5.5.5.5.5.5.5.5.y { % 5.",
"5.5.5.5.5.H.5.5.- m m m m m m I.J.*.K.L.'.!.M.N.u.O.P.6.5.5.5.e.Q.n./.R.^ ] b b { $.W M ] b y y z A b ] S.T.U.b b ^.p.=.^ b y b $.W j.i.b y e.5.5.5.5.5.5.5.5.5.5.5.5.5.5.5.5.5.( 5.",
"A.5.5.A.5.5.5.e.B m m m m m V.W.X.Y.I.Z.`. +a.~..+d.6.5.5.5.A.e.z l.m m /.<.A z b V W M { y e.y z [.m m m m ++{ { ^.}.@+{ z G.y #+J j.{ y 5.5.A.5.5.A.5.5.5.5.5.5.5.5.5.5.5.G.e.9 5.",
"5.5.5.5.A.5.5.{ Y.m m m m m Q K.$+m m m m m m %+O.P.&+5.H.5.5.e.y b ] _.m m m.z A V W M c z e.o.m /.*+c =+T.++c { ^.3.4.{ y 5.y V W M c y 5.A.5.5.5.5.A.5.5.5.5.5.5.G.5.G.5.5.y / 5.",
"A.A.A.5.5.A.A.h m m m m m m  .-+C m m m m m Q ].d.;+5.H.A.A.A.5.e.y b b ] >+p.q.{ $.W M { z B.C.D.{ b { =+T.++{ c ^.3.4.{ y 5.y V W M p y 5.5.5.A.5.5.5.5.5.5.5.5.e.5.5.G.G.e.z ] 5.",
"5.A.5.A.A.5.5.,+P ).'+)+V.m ,.Z.m m m m m m I.c.d.;+H.5.5.A.5.5.e.y z A { !+m ~+] $.W {+{ b ]+T.U.] { ] 2.m ++{ { ^.}.4.{ y H.y ^+W {+{ z 5.5.5.5.5.5.5.5.5.5.5.e.5.G.e.e.e.e.{ c 5.",
"A.5.A.5.A.H.A.0 /+(+_+:+#+<+0.).m m m m m m L.[+}+6.A.A.A.5.A.G.B.|+i.z ] >+3.|.{ { >+:.1+] $.C.:.R.] !+m m ++{ c ^.3.4.c y 5.e.b >+:.1+b y e.G.5.G.5.5.5.e.e.e.e.e.e.e.e.e.e.%.2+5.",
"A.A.A.A.A.A.5.6.3+4+5+5+[+[+6+).m m m m m 7+R (+z.H.H.5.A.A.A.5.8+C.m m m /.<.{ b b V W m }.9+S.T.m m /.0+T.~+A b F.}.|.b y A.e.z V W m }.a+e.e.G.G.5.e.e.e.e.e.e.e.e.e.y y z ] b+5.",
"5.A.5.5.5.A.H.c+;+}+}+3+3+3+d+e+Z.{. .f+'.-+g+h+;+H.A.A.5.A.5.G.e.z z z b A b b z y z b b b b { ] b b A b ] b y y z b { z y 5.G.y A c { b z e.e.5.e.e.e.e.e.e.e.e.y y y y y ] z i+5.",
"A.A.A.A.A.A.A.H.H.c+c+&+&+&+&+}+4+[+j+j+j+k+y.3+&+H.A.A.A.A.A.5.e.z z y z y y y e.e.y y z z z z b z z z z b y y y y z z y e.5.5.e.y z b z z y e.e.e.e.e.e.e.y y y y y y y b ] l+l+5.",
"A.A.A.A.A.A.A.A.A.A.H.A.A.A.H.&+}+d+4+y.4+m+}+;+5.A.A.A.A.A.A.5.5.e.e.e.e.e.e.5.5.5.5.e.y e.y e.e.y y e.y y y e.e.e.y y e.e.5.G.e.y y z z y y y e.y y e.y y y y y y z y z %.y i+5.5.",
"A.A.A.A.A.A.A.A.A.A.A.A.A.A.A.A.A.A.A.A.A.A.A.A.A.A.A.A.A.A.A.A.A.A.A.A.A.A.A.A.A.H.A.5.A.5.5.5.5.5.5.5.5.5.5.5.5.G.G.5.e.e.e.e.e.e.y e.e.y y y y y y y y y y y z z k.A ] y b+5.5.5.",
"A.A.A.A.A.A.A.A.A.A.A.A.A.A.A.A.A.A.A.A.A.A.A.A.A.A.A.A.A.A.A.A.A.A.A.A.A.5.A.5.5.A.5.A.5.5.5.5.5.5.5.5.5.5.e.5.G.e.e.e.e.e.e.e.e.e.e.y y y y y y y y y y z z z z z U (.y b+5.5.5.5.",
"A.A.A.A.A.A.A.A.A.A.A.A.A.A.A.A.A.A.A.A.A.A.A.A.A.A.A.A.A.A.A.A.H.A.A.A.5.A.5.5.5.5.5.H.5.5.5.5.G.G.e.5.e.e.e.e.e.e.e.e.e.e.e.y y y y y y y z y z y z z z z z b b { { y i+5.5.5.5.5.",
"A.A.A.A.A.A.A.A.A.A.A.A.A.A.A.A.A.A.A.A.A.A.A.A.A.A.A.A.A.A.H.A.A.5.5.5.5.5.A.5.5.5.5.5.5.5.e.5.G.G.5.e.e.e.e.e.e.e.y y y y y y y y y y y z z z z z z z b b b b b y e.y 5.5.5.5.5.5.",
"N N N N N N N N N N N N N N N N N N N N N N N N N N N N N N N N N N N N N N N N N N N N N N N N ] N N N N N N N N N N N ] N N N N N N N N N N N N N N N N N c k.i+n+5.5.5.5.5.5.5.5.",
"A.A.A.A.A.A.A.A.A.A.A.A.A.A.A.A.A.A.A.A.A.A.A.A.A.A.A.A.A.A.A.A.A.A.A.A.A.A.A.A.A.A.A.A.A.A.A.A.A.A.A.A.A.A.A.A.A.A.A.A.A.A.A.A.A.A.A.A.A.A.A.A.A.A.A.A.A.A.A.A.A.A.A.A.A.A.A.A.A.5."};
