/* XPM */
static char * closeA_xpm[] = {
"40 30 156 2",
"  	c None",
". 	c #641A00",
"+ 	c #F8E1DA",
"@ 	c #FDF6F3",
"# 	c #FEFBF8",
"$ 	c #FCF1EC",
"% 	c #F3D2C7",
"& 	c #F9E4DB",
"* 	c #F9E6DF",
"= 	c #641C00",
"- 	c #F1C8B9",
"; 	c #F3CEC1",
"> 	c #F4D1C4",
", 	c #F6DAD0",
"' 	c #EBBAA9",
") 	c #EEBDAC",
"! 	c #AD9C96",
"~ 	c #AC978F",
"{ 	c #E9B29F",
"] 	c #E7B09D",
"^ 	c #E9AC97",
"/ 	c #EAAD98",
"( 	c #E9AA97",
"_ 	c #FFFFFF",
": 	c #AB938D",
"< 	c #E6A18E",
"[ 	c #AC958E",
"} 	c #E49E86",
"| 	c #E39D85",
"1 	c #E89578",
"2 	c #E1927D",
"3 	c #A98C85",
"4 	c #A88983",
"5 	c #E18E7B",
"6 	c #E29982",
"7 	c #DD896F",
"8 	c #DE8D70",
"9 	c #DD8D71",
"0 	c #DD876D",
"a 	c #DB8067",
"b 	c #DA7A64",
"c 	c #DB7A63",
"d 	c #DA735E",
"e 	c #A7837B",
"f 	c #A7817B",
"g 	c #DB7561",
"h 	c #DC826A",
"i 	c #BA6A52",
"j 	c #A22600",
"k 	c #A32903",
"l 	c #AC2800",
"m 	c #AD290B",
"n 	c #B0290E",
"o 	c #9A6A62",
"p 	c #B42912",
"q 	c #B22710",
"r 	c #AA2708",
"s 	c #A82806",
"t 	c #A52503",
"u 	c #CC6F52",
"v 	c #AE2602",
"w 	c #B02A06",
"x 	c #B32909",
"y 	c #B52B0B",
"z 	c #B82A0E",
"A 	c #BA2A12",
"B 	c #9F6A63",
"C 	c #BD2D15",
"D 	c #CD7151",
"E 	c #661A00",
"F 	c #C47052",
"G 	c #B62F00",
"H 	c #B63102",
"I 	c #B82E04",
"J 	c #BB2D07",
"K 	c #BD310B",
"L 	c #BE2F0E",
"M 	c #C02F12",
"N 	c #9E6A64",
"O 	c #CC2D1C",
"P 	c #A26A65",
"Q 	c #C32E15",
"R 	c #BD2C0B",
"S 	c #D37051",
"T 	c #C66D52",
"U 	c #C22E00",
"V 	c #C22F02",
"W 	c #C42E06",
"X 	c #C52C09",
"Y 	c #C72C0D",
"Z 	c #C72F11",
"` 	c #C92E15",
" .	c #A16B65",
"..	c #A36B67",
"+.	c #CF2D25",
"@.	c #CE2C24",
"#.	c #A36A67",
"$.	c #CA2D18",
"%.	c #C52E0B",
"&.	c #C32F07",
"*.	c #D87252",
"=.	c #641300",
"-.	c #CE3000",
";.	c #CE3006",
">.	c #CF300B",
",.	c #D02E0E",
"'.	c #D03112",
").	c #D03016",
"!.	c #D0301A",
"~.	c #D12D25",
"{.	c #D12F2B",
"].	c #D23028",
"^.	c #CF2E13",
"/.	c #CF2E0F",
"(.	c #CF3303",
"_.	c #E27752",
":.	c #D73A03",
"<.	c #D73503",
"[.	c #D83800",
"}.	c #D73509",
"|.	c #D6340E",
"1.	c #D53313",
"2.	c #D53217",
"3.	c #D5311B",
"4.	c #D5301F",
"5.	c #D33023",
"6.	c #D32F27",
"7.	c #D52F2F",
"8.	c #D32F2B",
"9.	c #D12E21",
"0.	c #D02F1E",
"a.	c #E67852",
"b.	c #DC7352",
"c.	c #EE7A52",
"d.	c #E66648",
"e.	c #E25A44",
"f.	c #DF5441",
"g.	c #DD4C3D",
"h.	c #DB473B",
"i.	c #D84038",
"j.	c #D63A36",
"k.	c #D53333",
"l.	c #D63236",
"m.	c #DA453A",
"n.	c #EC7950",
"o.	c #761F00",
"p.	c #791A0B",
"q.	c #9C2118",
"r.	c #8F1F13",
"s.	c #A0211A",
"t.	c #A8241E",
"u.	c #B12521",
"v.	c #B92825",
"w.	c #C02828",
"x.	c #C72B2B",
"y.	c #C22828",
". + @ # # # # # # # # # # # # # # # # # # # # # # # # # # # # # # # # # # # $ . ",
". % + & + & & & & & & & & & & & & & & & & + & & & & & & & & & & & & & & & & * = ",
". - ; > > > > > - > > - > - > - > > > > > > > > > > > > > > > > - % - - > - , = ",
". ' ) ) ) ) ) ) ' ' - - - ' - ' ! ! ~ - ) ) ! ! ! ) ) ) ) ) ) ) { - - - - ' > = ",
"= ] ^ ^ ^ ^ ^ / ^ ^ ^ ] ^ ^ ( ! _ _ _ : < : _ _ _ [ ^ ^ ^ ^ / / ^ ^ ^ / / / - . ",
"= } < < < | 1 < | < < 1 < < 2 2 3 _ _ _ 4 _ _ _ 3 5 2 6 | | } } < < 1 < | | ) . ",
"= 1 7 8 7 7 9 9 9 7 9 9 0 a b c d e _ _ _ _ _ f d g b a h 0 9 9 7 7 9 9 9 9 { . ",
". i j k k k k k j j k k k l m n n o _ _ _ _ _ o p q n m r s t j j k t j j j u . ",
". i l l l l l l l v l w x y z A B _ _ _ B _ _ _ B C A A y x w v v l l l l l D E ",
". F G H G H G G G H I J K L M B _ _ _ N O P _ _ _ B Q M L R K J H H H G G G S . ",
". T U U U U U U V V W X Y Z ` `  .P ..+.@.+.#.#.P O $.` Z %.X &.U U U U U U *.. ",
"=.u -.-.-.-.-.-.-.-.;.>.,.'.).!.!.~.+.{.{.{.].~.@.!.!.).^./.>.(.-.-.-.-.-.-._.. ",
"=.D :.<.[.[.[.[.[.[.:.}.|.1.2.3.4.5.6.{.7.7.8.6.9.4.0.2.1.}.<.:.[.[.[.[.[.a.b.. ",
"=.u c.c.c.c.c.c.c.c.c.c.d.e.f.g.h.i.j.k.l.l.k.j.j.m.g.e.d.n.c.c.c.c.c.c.c.*.o.=.",
". =.=.=.=.=.=.=.=.=.=.=.p.q.r.s.t.u.v.w.x.x.y.v.v.t.s.q.p.=.=.=.=.=.=.=.=.=.=   ",
". + @ # # # # # # # # # # # # # # # # # # # # # # # # # # # # # # # # # # # $ . ",
". % + & + & & & & & & & & & & & & & & & & + & & & & & & & & & & & & & & & & * = ",
". - ; > > > > > - > > - > - > - > > > > > > > > > > > > > > > > - % - - > - , = ",
". ' ) ) ) ) ) ) ' ' - - - ' - ' ! ! ~ - ) ) ! ! ! ) ) ) ) ) ) ) { - - - - ' > = ",
"= ] ^ ^ ^ ^ ^ / ^ ^ ^ ] ^ ^ ( ! _ _ _ : < : _ _ _ [ ^ ^ ^ ^ / / ^ ^ ^ / / / - . ",
"= } < < < | 1 < | < < 1 < < 2 2 3 _ _ _ 4 _ _ _ 3 5 2 6 | | } } < < 1 < | | ) . ",
"= 1 7 8 7 7 9 9 9 7 9 9 0 a b c d e _ _ _ _ _ f d g b a h 0 9 9 7 7 9 9 9 9 { . ",
". i j k k k k k j j k k k l m n n o _ _ _ _ _ o p q n m r s t j j k t j j j u . ",
". i l l l l l l l v l w x y z A B _ _ _ B _ _ _ B C A A y x w v v l l l l l D E ",
". F G H G H G G G H I J K L M B _ _ _ N O P _ _ _ B Q M L R K J H H H G G G S . ",
". T U U U U U U V V W X Y Z ` `  .P ..+.@.+.#.#.P O $.` Z %.X &.U U U U U U *.. ",
"=.u -.-.-.-.-.-.-.-.;.>.,.'.).!.!.~.+.{.{.{.].~.@.!.!.).^./.>.(.-.-.-.-.-.-._.. ",
"=.D :.<.[.[.[.[.[.[.:.}.|.1.2.3.4.5.6.{.7.7.8.6.9.4.0.2.1.}.<.:.[.[.[.[.[.a.b.. ",
"=.u c.c.c.c.c.c.c.c.c.c.d.e.f.g.h.i.j.k.l.l.k.j.j.m.g.e.d.n.c.c.c.c.c.c.c.*.o.=.",
". =.=.=.=.=.=.=.=.=.=.=.p.q.r.s.t.u.v.w.x.x.y.v.v.t.s.q.p.=.=.=.=.=.=.=.=.=.=   "};
