/* XPM */
static char * closeA_xpm[] = {
"40 30 37 1",
" 	c None",
".	c #0D0D0D",
"+	c #F4F4F4",
"@	c #FEFEFE",
"#	c #FAFAFA",
"$	c #EBEBEB",
"%	c #F3F3F3",
"&	c #E5E5E5",
"*	c #EFEFEF",
"=	c #DDDDDD",
"-	c #DBDBDB",
";	c #ADADAD",
">	c #D3D3D3",
",	c #A8A8A8",
"'	c #D6D6D6",
")	c #C8C8C8",
"!	c #A5A5A5",
"~	c #BDBDBD",
"{	c #9D9D9D",
"]	c #989898",
"^	c #595959",
"/	c #767676",
"(	c #A3A3A3",
"_	c #616161",
":	c #797979",
"<	c #111111",
"[	c #0B0B0B",
"}	c #686868",
"|	c #7F7F7F",
"1	c #707070",
"2	c #808080",
"3	c #B1B1B1",
"4	c #B8B8B8",
"5	c #2B2B2B",
"6	c #232328",
"7	c #1E1F23",
"8	c #262628",
".+@@@@@@@@@@@@@@@@@@@@@@@@@@@@@@@@@@@@#.",
".$%%++++%%++++%%++++%%++++%%++++%%+++++.",
".&$$$$$$$$$$$$$$$$$$$$$$$$$$$$$$$$$$$$*.",
".=-=============;;;===;;;=============$.",
".->>>>>>>>>>>>>,++%,>,+++,>>>>>>>>>>>'&.",
".)))))))))))))))!%%%!%%%!)))))))))))))=.",
".)~~~~~~~~~~~~~~~{%%%**{~~~~~~~~~~~~~~-.",
".]^^^^^^^^^^^^^^^/-''--/^^^^^^^^^^^^^^(.",
".]______________:---:---:_____________!<",
"[{}}}}}}}}}}}}}|===|}|===|}}}}}}}}}}}},<",
"[(11111111111111|221}122|111111111/}1}3<",
"[(:::/:/::/:/:://:::::/:/::/:/::/::/::3<",
"[!|||||||||||||||||||||||||||||||||||4;.",
"[!44444444444444444444444444444444444;56",
"[[[[[[[[[[[[[[[[[[[[[[[[[[[[[[[[[[[[[[77",
".+@@@@@@@@@@@@@@@@@@@@@@@@@@@@@@@@@@@@#.",
".$%%++++%%++++%%++++%%++++%%++++%%+++++.",
".&$$$$$$$$$$$$$$$$$$$$$$$$$$$$$$$$$$$$*.",
".=-=============;;;===;;;=============$.",
".->>>>>>>>>>>>>,++%,>,+++,>>>>>>>>>>>'&.",
".)))))))))))))))!%%%!%%%!)))))))))))))=.",
".)~~~~~~~~~~~~~~~{%%%**{~~~~~~~~~~~~~~-.",
".]^^^^^^^^^^^^^^^/-''--/^^^^^^^^^^^^^^(.",
".]______________:---:---:_____________!<",
"[{}}}}}}}}}}}}}|===|}|===|}}}}}}}}}}}},<",
"[(11111111111111|221}122|111111111/}1}3<",
"[(:::/:/::/:/:://:::::/:/::/:/::/::/::3<",
"[!|||||||||||||||||||||||||||||||||||4;.",
"[!44444444444444444444444444444444444;86",
"[[[[[[[[[[[[[[[[[[[[[[[[[[[[[[[[[[[[[[77"};
