/* XPM */
static char * maximizeI_xpm[] = {
"27 30 32 1",
" 	c None",
".	c #0D0D0D",
"+	c #F4F4F4",
"@	c #FEFEFE",
"#	c #EBEBEB",
"$	c #F3F3F3",
"%	c #E5E5E5",
"&	c #C8C8C8",
"*	c #B3B3B3",
"=	c #DEDEDE",
"-	c #AEAEAE",
";	c #F7F7F7",
">	c #D6D6D6",
",	c #D3D3D3",
"'	c #AAAAAA",
")	c #DBDBDB",
"!	c #A5A5A5",
"~	c #BDBDBD",
"{	c #A0A0A0",
"]	c #9A9A9A",
"^	c #595959",
"/	c #767676",
"(	c #616161",
"_	c #797979",
":	c #686868",
"<	c #9D9D9D",
"[	c #7C7C7C",
"}	c #707070",
"|	c #808080",
"1	c #0B0B0B",
"2	c #838383",
"3	c #B8B8B8",
".+@@@@@@@@@@@@@@@@@@@@@@@@+",
".#++$$++++++++++++++++++++#",
".%#%%###&**********&###%#%%",
".=======-+;;;;;;;++-=======",
".>>,,,,,'++++++++++',,,,>,)",
".&&&&&&&!$$$++$+$$$!&&&&&&&",
".&~~~~~~{${{{{{{{{${~~~~~~&",
".]^^^^^^/>/^^^^^^/>/^^^^^^]",
".]((((((_)_((((((_=_((:(((<",
".<::::::_=__[[[[_/=_::::::<",
".<}}}}}}|%=%====%%%|::_:}}{",
"1!/_____||||2222||||[___/_{",
"1![|[||[[||[|[||[||[[|||[|!",
"1!333333333333333333333*33'",
"11.11111..1111..1111..11111",
".+@@@@@@@@@@@@@@@@@@@@@@@@+",
".#++$$++++++++++++++++++++#",
".%#%%###&**********&###%#%%",
".=======-+;;;;;;;++-=======",
".>>,,,,,'++++++++++',,,,>,)",
".&&&&&&&!$$$++$+$$$!&&&&&&&",
".&~~~~~~{${{{{{{{{${~~~~~~&",
".]^^^^^^/>/^^^^^^/>/^^^^^^]",
".]((((((_)_((((((_=_((:(((<",
".<::::::_=__[[[[_/=_::::::<",
".<}}}}}}|%=%====%%%|::_:}}{",
"1!/_____||||2222||||[___/_{",
"1![|[||[[||[|[||[||[[|||[|!",
"1!333333333333333333333*33'",
"11.11111..1111..1111..11111"};
