/* XPM */
static char * maximizeA_xpm[] = {
"27 30 123 2",
"  	c None",
". 	c #004B64",
"+ 	c #DAF1F8",
"@ 	c #F3FAFD",
"# 	c #F8FBFE",
"$ 	c #C6E8F3",
"% 	c #DBF1F9",
"& 	c #D8F0F8",
"* 	c #C4E8F4",
"= 	c #B9E3F1",
"- 	c #C1E7F3",
"; 	c #B0C7CF",
"> 	c #9FACB0",
", 	c #A8DBEB",
"' 	c #ACDEEE",
") 	c #97A8AE",
"! 	c #FFFFFF",
"~ 	c #9CD5E7",
"{ 	c #98D6EA",
"] 	c #8FA5AC",
"^ 	c #97D5E9",
"/ 	c #8FD0E2",
"( 	c #86CDE4",
"_ 	c #85CCE3",
": 	c #81CDE2",
"< 	c #86A2A9",
"[ 	c #78CCE8",
"} 	c #70C3DE",
"| 	c #6EC3DD",
"1 	c #6AC4DC",
"2 	c #67C5DB",
"3 	c #7DA0A7",
"4 	c #7AA1A7",
"5 	c #7BA0A7",
"6 	c #51A3BA",
"7 	c #007EA2",
"8 	c #0381A3",
"9 	c #0687A6",
"0 	c #088DAA",
"a 	c #0B92AD",
"b 	c #608F98",
"c 	c #619299",
"d 	c #15A4B6",
"e 	c #15A5B7",
"f 	c #0688A7",
"g 	c #0382A4",
"h 	c #51A5BE",
"i 	c #0086AC",
"j 	c #0993B2",
"k 	c #0B99B5",
"l 	c #14A2B5",
"m 	c #62969E",
"n 	c #18AFBF",
"o 	c #1AB1C0",
"p 	c #1BB2C1",
"q 	c #0E9EB7",
"r 	c #0C9AB5",
"s 	c #058FB0",
"t 	c #0188AD",
"u 	c #51A7C4",
"v 	c #018AB6",
"w 	c #0795BA",
"x 	c #0B9ABC",
"y 	c #0FA1BE",
"z 	c #64999F",
"A 	c #659BA0",
"B 	c #659EA3",
"C 	c #0995BA",
"D 	c #51ACC6",
"E 	c #09A3C5",
"F 	c #0DA9C6",
"G 	c #11ADC7",
"H 	c #14B2C8",
"I 	c #639AA1",
"J 	c #15B2C8",
"K 	c #079EC3",
"L 	c #0299C2",
"M 	c #005264",
"N 	c #51B1CD",
"O 	c #02A1CD",
"P 	c #06A6CE",
"Q 	c #09ACD6",
"R 	c #0EB2D6",
"S 	c #12B4CF",
"T 	c #16B9CF",
"U 	c #4DA6B1",
"V 	c #68A1A4",
"W 	c #67A0A3",
"X 	c #6AA3A4",
"Y 	c #0AAACE",
"Z 	c #00A3D8",
"` 	c #51AECD",
" .	c #03A6D7",
"..	c #13B7D5",
"+.	c #17BCD5",
"@.	c #18BCD5",
"#.	c #23C8D3",
"$.	c #27CCD3",
"%.	c #2BD1D2",
"&.	c #31D6D2",
"*.	c #2FD5D2",
"=.	c #50C7EC",
"-.	c #48CBE6",
";.	c #43CDE2",
">.	c #40CFDF",
",.	c #38D3D8",
"'.	c #36D4D6",
").	c #33D5D4",
"!.	c #3BD1DB",
"~.	c #51C7EE",
"{.	c #0C727F",
"].	c #13868F",
"^.	c #168F97",
"/.	c #1A9A9F",
"(.	c #1EA4A8",
"_.	c #21ADB0",
":.	c #25B7B8",
"<.	c #28C1BF",
"[.	c #2BC7C5",
"}.	c #25B8B8",
"|.	c #18949B",
"1.	c #0B6D7A",
"2.	c #015566",
". + @ # # # # # # # # # # # # # # # # # # # # # # @ + ",
". $ + + + + % % % % + + % % % % + + % % % % % % % & * ",
". = - - * * * * ; > > > > > > > > > > ; * * * * * - = ",
". , ' ' ' ' ' ' ) ! ! ! ! ! ! ! ! ! ! ) ' ' ' ' ' ' , ",
". ~ { { { { { { ] ! ! ! ! ! ! ! ! ! ! ] ^ { { { { { ~ ",
". / ( ( ( ( _ : < ! ! ! ! ! ! ! ! ! ! < : _ _ _ ( ( / ",
". [ } } } | 1 2 3 ! 4 5 4 4 4 4 4 4 ! 3 2 1 | } } } [ ",
". 6 7 7 8 9 0 a b ! c d d e d d d c ! c a 0 f g 7 7 6 ",
". h i i 0 j k l c ! m n o n o p n m ! m q r j s t i h ",
". u v v w x y y m ! z A B z B A A z ! m y y x C C v u ",
". D w E E F G H I ! ! ! ! ! ! ! ! ! ! B J G F E K L D ",
"M N O P Q R S T U B B V W X V W V B B U T T S Y Z K ` ",
"M ` Z  .Q R ..+.@.#.#.$.%.&.*.%.$.#.#.@.@...Q  .Z Z ` ",
"M N =.=.=.-.;.>.;.,.,.'.).&.&.&.'.,.,.!.;.-.=.~.=.~.N ",
". M M M M {.].^./.(._.:.<.[.[.<.}._.(./.|.1.2.M M M M ",
". + @ # # # # # # # # # # # # # # # # # # # # # # @ + ",
". $ + + + + % % % % + + % % % % + + % % % % % % % & * ",
". = - - * * * * ; > > > > > > > > > > ; * * * * * - = ",
". , ' ' ' ' ' ' ) ! ! ! ! ! ! ! ! ! ! ) ' ' ' ' ' ' , ",
". ~ { { { { { { ] ! ! ! ! ! ! ! ! ! ! ] ^ { { { { { ~ ",
". / ( ( ( ( _ : < ! ! ! ! ! ! ! ! ! ! < : _ _ _ ( ( / ",
". [ } } } | 1 2 3 ! 4 5 4 4 4 4 4 4 ! 3 2 1 | } } } [ ",
". 6 7 7 8 9 0 a b ! c d d e d d d c ! c a 0 f g 7 7 6 ",
". h i i 0 j k l c ! m n o n o p n m ! m q r j s t i h ",
". u v v w x y y m ! z A B z B A A z ! m y y x C C v u ",
". D w E E F G H I ! ! ! ! ! ! ! ! ! ! B J G F E K L D ",
"M N O P Q R S T U B B V W X V W V B B U T T S Y Z K ` ",
"M ` Z  .Q R ..+.@.#.#.$.%.&.*.%.$.#.#.@.@...Q  .Z Z ` ",
"M N =.=.=.-.;.>.;.,.,.'.).&.&.&.'.,.,.!.;.-.=.~.=.~.N ",
". M M M M {.].^./.(._.:.<.[.[.<.}._.(./.|.1.2.M M M M "};
