/* XPM */
static char * minimizeA_xpm[] = {
"26 30 38 1",
" 	c None",
".	c #0E0E0E",
"+	c #FAFAFA",
"@	c #FFFFFF",
"#	c #F4F4F4",
"$	c #F3F3F3",
"%	c #E9E9E9",
"&	c #E5E5E5",
"*	c #0B0B0B",
"=	c #DEDEDE",
"-	c #D3D3D3",
";	c #C8C8C8",
">	c #D9D9D9",
",	c #BDBDBD",
"'	c #A0A0A0",
")	c #595959",
"!	c #717171",
"~	c #767676",
"{	c #6F6F6F",
"]	c #989898",
"^	c #101010",
"/	c #A6A6A6",
"(	c #616161",
"_	c #797979",
":	c #9A9A9A",
"<	c #686868",
"[	c #7C7C7C",
"}	c #9D9D9D",
"|	c #AEAEAE",
"1	c #808080",
"2	c #B1B1B1",
"3	c #838383",
"4	c #B3B3B3",
"5	c #232328",
"6	c #2B2B2B",
"7	c #B8B8B8",
"8	c #A8A8A8",
"9	c #1E1F23",
".+@@@@@@@@@@@@@@@@@@@@@@@#",
".#######################$%",
".$%%%%%%%%%%%%%%%%%%%%%%%&",
"*%========================",
".&------------------------",
".=;;;;;;;;;;;;;;;;;;;;;;;-",
".>,,,,,,,,,,,,,,,,,,,,,,,;",
".')))))))!~~~~~~~~~{)))))]",
"^/(((((((_>=>>>=>=>_(((((:",
"^/<<<<<<<[=======>=[<<<<<}",
"^|!!{!!!!1===&==&==1!!{!!}",
"^2~__~~_~13313113311~__~~/",
".|41[111111[[11[[111111[[/",
"56|77777777777777777777778",
"99************.***********",
".+@@@@@@@@@@@@@@@@@@@@@@@#",
".#######################$%",
".$%%%%%%%%%%%%%%%%%%%%%%%&",
"*%========================",
".&------------------------",
".=;;;;;;;;;;;;;;;;;;;;;;;-",
".>,,,,,,,,,,,,,,,,,,,,,,,;",
".')))))))!~~~~~~~~~{)))))]",
"^/(((((((_>=>>>=>=>_(((((:",
"^/<<<<<<<[=======>=[<<<<<}",
"^|!!{!!!!1===&==&==1!!{!!}",
"^2~__~~_~13313113311~__~~/",
".|41[111111[[11[[111111[[/",
"56|77777777777777777777778",
"99************.***********"};
