/* XPM */
static char * minimizeA_xpm[] = {
"26 30 163 2",
"  	c None",
". 	c #004B64",
"+ 	c #EBF7FC",
"@ 	c #F8FBFE",
"# 	c #F3FAFD",
"$ 	c #DBF1F9",
"% 	c #DEF2F9",
"& 	c #D8F0F8",
"* 	c #C6E8F3",
"= 	c #D0EDF6",
"- 	c #C4E8F4",
"; 	c #C1E7F3",
"> 	c #C5E9F3",
", 	c #B9E3F1",
"' 	c #ACDEEE",
") 	c #ABDDED",
"! 	c #A8DBEB",
"~ 	c #98D6EA",
"{ 	c #97D5E9",
"] 	c #91D5E8",
"^ 	c #90D5E7",
"/ 	c #8ED5E7",
"( 	c #8DD5E7",
"_ 	c #9CD5E7",
": 	c #9FD7E9",
"< 	c #86CDE4",
"[ 	c #85CCE3",
"} 	c #81CDE2",
"| 	c #7DCDE1",
"1 	c #78CEE0",
"2 	c #76CEDF",
"3 	c #75CFE0",
"4 	c #72CFDF",
"5 	c #73CFE0",
"6 	c #8FD0E2",
"7 	c #70C3DD",
"8 	c #6EC3DD",
"9 	c #6AC4DC",
"0 	c #67C5DB",
"a 	c #63C6DB",
"b 	c #5EC8DA",
"c 	c #5BC9DA",
"d 	c #64C6DA",
"e 	c #6DC3DD",
"f 	c #78CCE8",
"g 	c #51AAC6",
"h 	c #007EA2",
"i 	c #0381A3",
"j 	c #0687A6",
"k 	c #088DAA",
"l 	c #0B92AD",
"m 	c #0A94B2",
"n 	c #50939D",
"o 	c #619299",
"p 	c #62949A",
"q 	c #62939A",
"r 	c #46929F",
"s 	c #0688A7",
"t 	c #0382A4",
"u 	c #51A3BA",
"v 	c #004D66",
"w 	c #51AECD",
"x 	c #0086AC",
"y 	c #0188AD",
"z 	c #068EAF",
"A 	c #0993B2",
"B 	c #0B99B5",
"C 	c #0E9EB7",
"D 	c #12A3BA",
"E 	c #62959C",
"F 	c #FFFFFF",
"G 	c #62969E",
"H 	c #058FB0",
"I 	c #51A5BE",
"J 	c #51B6D3",
"K 	c #018AB6",
"L 	c #048EB7",
"M 	c #0795BA",
"N 	c #0B9BBC",
"O 	c #0EA0BE",
"P 	c #12A6C0",
"Q 	c #15ABC2",
"R 	c #63989F",
"S 	c #0995BA",
"T 	c #058FB8",
"U 	c #51A7C4",
"V 	c #51BBD9",
"W 	c #0299C2",
"X 	c #069EC3",
"Y 	c #09A3C5",
"Z 	c #0EA7C5",
"` 	c #11ADC7",
" .	c #14B2C8",
"..	c #18B6C9",
"+.	c #649CA1",
"@.	c #639BA1",
"#.	c #15B2C8",
"$.	c #0DA9C6",
"%.	c #0BA3C4",
"&.	c #079EC3",
"*.	c #50ADC6",
"=.	c #50BEE1",
"-.	c #02A1CD",
";.	c #06A6CE",
">.	c #0BACCE",
",.	c #0EB0CF",
"'.	c #12B4CF",
").	c #16B9CF",
"!.	c #1ABDD0",
"~.	c #4FA9B1",
"{.	c #6AA3A4",
"].	c #67A0A3",
"^.	c #659EA3",
"/.	c #17BCD5",
"(.	c #0AAACE",
"_.	c #03A3CE",
":.	c #51B0CC",
"<.	c #51BDDC",
"[.	c #51C1E5",
"}.	c #03A5D7",
"|.	c #0BAED6",
"1.	c #0EB2D6",
"2.	c #13B7D5",
"3.	c #18BCD5",
"4.	c #1FC4D4",
"5.	c #23C8D3",
"6.	c #27CCD3",
"7.	c #2BD1D2",
"8.	c #2FD5D2",
"9.	c #27CDD3",
"0.	c #23C9D3",
"a.	c #1BC0D4",
"b.	c #03A6D7",
"c.	c #00A3D8",
"d.	c #005264",
"e.	c #005976",
"f.	c #51C7EE",
"g.	c #50C7EC",
"h.	c #48CBE6",
"i.	c #43CDE2",
"j.	c #40CFDF",
"k.	c #3DD0DD",
"l.	c #3BD1DB",
"m.	c #38D3D8",
"n.	c #35D4D6",
"o.	c #33D5D4",
"p.	c #31D6D2",
"q.	c #36D4D6",
"r.	c #3AD2DA",
"s.	c #0C727F",
"t.	c #13868F",
"u.	c #168F97",
"v.	c #1A9A9F",
"w.	c #1EA4A8",
"x.	c #21ADB0",
"y.	c #25B7B8",
"z.	c #28C0BF",
"A.	c #2BC6C4",
"B.	c #25B8B8",
"C.	c #22AFB1",
"D.	c #1B9BA1",
"E.	c #18949B",
"F.	c #0B6D7A",
". + @ @ @ @ @ @ @ @ @ @ @ @ @ @ @ @ @ @ @ @ @ @ # $ ",
". % $ $ $ $ $ $ $ $ $ $ $ $ $ $ $ % $ $ $ $ $ % & * ",
". = - - - - - - - - - - - - - - * ; - > ; - - - ; , ",
". > ' ' ' ' ' ' ' ' ) ) ) ) ) ) ' ' ' ' ' ' ' ' ) ! ",
". , ~ ~ ~ ~ ~ { { { ] ^ / ( ( ( ^ ^ { _ { ~ ~ ~ { : ",
". ' < < < [ [ } | 1 1 2 3 4 5 5 2 2 2 2 } < < < < 6 ",
". : 7 7 7 8 9 0 a b b c c c c c d d b 0 0 9 e e 8 f ",
". g h h i j k l m n o p p p p p q q n r l k s t h u ",
"v w x y z A B C D E F F F F F F F F F G C B A H y I ",
"v J K L M N O P Q R F F F F F F F F F G D O N S T U ",
"v V W X Y Z `  ...+.F F F F F F F F F @.#.` $.%.&.*.",
"v =.-.;.>.,.'.).!.~.+.{.{.{.{.{.].].^.~./.'.'.(._.:.",
". <.[.}.|.1.2./.3.4.5.6.7.8.8.7.9.0.4.a.3.2.|.b.c.w ",
"d.e.V f.g.h.i.j.k.l.m.n.o.p.p.o.q.m.r.k.j.h.g.g.f.:.",
"  . d.d.d.s.t.u.v.w.x.y.z.A.A.z.B.C.w.D.E.F.d.d.d.d.",
". + @ @ @ @ @ @ @ @ @ @ @ @ @ @ @ @ @ @ @ @ @ @ # $ ",
". % $ $ $ $ $ $ $ $ $ $ $ $ $ $ $ % $ $ $ $ $ % & * ",
". = - - - - - - - - - - - - - - * ; - > ; - - - ; , ",
". > ' ' ' ' ' ' ' ' ) ) ) ) ) ) ' ' ' ' ' ' ' ' ) ! ",
". , ~ ~ ~ ~ ~ { { { ] ^ / ( ( ( ^ ^ { _ { ~ ~ ~ { : ",
". ' < < < [ [ } | 1 1 2 3 4 5 5 2 2 2 2 } < < < < 6 ",
". : 7 7 7 8 9 0 a b b c c c c c d d b 0 0 9 e e 8 f ",
". g h h i j k l m n o p p p p p q q n r l k s t h u ",
"v w x y z A B C D E F F F F F F F F F G C B A H y I ",
"v J K L M N O P Q R F F F F F F F F F G D O N S T U ",
"v V W X Y Z `  ...+.F F F F F F F F F @.#.` $.%.&.*.",
"v =.-.;.>.,.'.).!.~.+.{.{.{.{.{.].].^.~./.'.'.(._.:.",
". <.[.}.|.1.2./.3.4.5.6.7.8.8.7.9.0.4.a.3.2.|.b.c.w ",
"d.e.V f.g.h.i.j.k.l.m.n.o.p.p.o.q.m.r.k.j.h.g.g.f.:.",
"  . d.d.d.s.t.u.v.w.x.y.z.A.A.z.B.C.w.D.E.F.d.d.d.d."};
