/* XPM */
static char * restoreA_xpm[] = {
"27 30 127 2",
"  	c None",
". 	c #004B64",
"+ 	c #DAF1F8",
"@ 	c #F3FAFD",
"# 	c #F8FBFE",
"$ 	c #D8F0F8",
"% 	c #C6E8F3",
"& 	c #DBF1F9",
"* 	c #BFCDD2",
"= 	c #A7AFB2",
"- 	c #D6D6D6",
"; 	c #B9E3F1",
"> 	c #C1E7F3",
", 	c #C4E8F4",
"' 	c #FFFFFF",
") 	c #9FACB0",
"! 	c #A8DBEB",
"~ 	c #ACDEEE",
"{ 	c #A0C1CB",
"] 	c #97A8AE",
"^ 	c #8F9597",
"/ 	c #B4B4B4",
"( 	c #9CD5E7",
"_ 	c #98D6EA",
": 	c #90A5AC",
"< 	c #89A2AA",
"[ 	c #8FD0E2",
"} 	c #86CDE4",
"| 	c #899496",
"1 	c #85A3A9",
"2 	c #78CCE8",
"3 	c #70C3DE",
"4 	c #6EC3DD",
"5 	c #809FA7",
"6 	c #7F9FA7",
"7 	c #60C7DB",
"8 	c #64C6DA",
"9 	c #51A3BA",
"0 	c #007EA2",
"a 	c #0381A3",
"b 	c #0687A6",
"c 	c #5D8C96",
"d 	c #62949A",
"e 	c #7D8F92",
"f 	c #109CB2",
"g 	c #0E97AF",
"h 	c #0382A4",
"i 	c #51A5BE",
"j 	c #0086AC",
"k 	c #0188AD",
"l 	c #058FB0",
"m 	c #0993B2",
"n 	c #5E8E99",
"o 	c #14A7BB",
"p 	c #17ACBD",
"q 	c #62959C",
"r 	c #63989D",
"s 	c #64999E",
"t 	c #7E9092",
"u 	c #5E909A",
"v 	c #51A7C4",
"w 	c #018AB6",
"x 	c #048EB7",
"y 	c #0795BA",
"z 	c #0B9ABC",
"A 	c #5E919C",
"B 	c #18B0C4",
"C 	c #1BB4C5",
"D 	c #659BA0",
"E 	c #0995BA",
"F 	c #51ACC6",
"G 	c #069EC3",
"H 	c #09A3C5",
"I 	c #0EA7C5",
"J 	c #639AA1",
"K 	c #779698",
"L 	c #7F9394",
"M 	c #659DA2",
"N 	c #469BAB",
"O 	c #0BA3C4",
"P 	c #079EC3",
"Q 	c #0299C2",
"R 	c #005264",
"S 	c #51B1CD",
"T 	c #02A1CD",
"U 	c #06A6CE",
"V 	c #0BACCE",
"W 	c #0EB2D6",
"X 	c #67A0A3",
"Y 	c #1EC1D0",
"Z 	c #1ABDD0",
"` 	c #16B9CF",
" .	c #13B6CF",
"..	c #0AAACE",
"+.	c #51AECD",
"@.	c #00A3D8",
"#.	c #13B7D5",
"$.	c #6199A3",
"%.	c #659FA5",
"&.	c #67A0A4",
"*.	c #6BA5A4",
"=.	c #68A2A4",
"-.	c #52ADB2",
";.	c #1FC4D4",
">.	c #18BCD5",
",.	c #0BAED6",
"'.	c #03A6D7",
").	c #51C7EE",
"!.	c #43CDE2",
"~.	c #3FCFDE",
"{.	c #38D3D8",
"].	c #36D4D6",
"^.	c #33D5D4",
"/.	c #31D6D2",
"(.	c #35D4D6",
"_.	c #48CBE6",
":.	c #015566",
"<.	c #13868F",
"[.	c #168F97",
"}.	c #1B9BA1",
"|.	c #1EA4A8",
"1.	c #22AFB1",
"2.	c #25B8B8",
"3.	c #2BC7C5",
"4.	c #28C1BF",
"5.	c #18949B",
"6.	c #0B6D7A",
". + @ # # # # # # # @ # # # # # @ # # # # # @ @ @ @ $ ",
". % + + + + & & & & $ * = = = = = = = = = = - + + $ % ",
". ; > > , , , , , , , = ' ' ' ' ' ' ' ' ' ' ) , , > ; ",
". ! ~ ~ ~ ~ { ] ] ] ] ^ / / / / / - ' ' ' ' ] ~ ~ ! ! ",
". ( _ _ _ _ : ' ' ' ' ' ' ' ' ' ' / ' ' ' ' < _ _ _ ( ",
". [ } } } } < ' ' ' ' ' ' ' ' ' ' | 1 1 < ' < } } } [ ",
". 2 3 3 3 4 5 ' ' ' ' ' ' ' ' ' ' 6 7 8 6 ' 1 4 2 3 2 ",
". 9 0 0 a b c ' d c d e / e d d ' d f g c ' c h 0 0 9 ",
". i j k l m n ' d o p q ' r s t ' e q q u ' c l k j i ",
". v w x y z A ' q B C D ' ' ' / ' / ' ' ' ' u E x w v ",
". F y G H I A ' J D D K t L L t ' t M D J q N O P Q F ",
"R S T U V W J ' ' ' ' ' ' ' ' ' ' X Y Z `  .W ..U T +.",
"R +.@.@.W #.9 $.%.%.&.*.*.*.*.*.=.-.;.>.>.#.,.'.@.@.+.",
"R S ).).S !.!.!.~.{.{.].^././.^.(.{.{.~.~._.).).).).S ",
". R :.R R 0 <.[.}.|.1.2.2.3.3.4.2.1.|.}.5.6.:.R R R R ",
". + @ # # # # # # # @ # # # # # @ # # # # # @ @ @ @ $ ",
". % + + + + & & & & $ * = = = = = = = = = = - + + $ % ",
". ; > > , , , , , , , = ' ' ' ' ' ' ' ' ' ' ) , , > ; ",
". ! ~ ~ ~ ~ { ] ] ] ] ^ / / / / / - ' ' ' ' ] ~ ~ ! ! ",
". ( _ _ _ _ : ' ' ' ' ' ' ' ' ' ' / ' ' ' ' < _ _ _ ( ",
". [ } } } } < ' ' ' ' ' ' ' ' ' ' | 1 1 < ' < } } } [ ",
". 2 3 3 3 4 5 ' ' ' ' ' ' ' ' ' ' 6 7 8 6 ' 1 4 2 3 2 ",
". 9 0 0 a b c ' d c d e / e d d ' d f g c ' c h 0 0 9 ",
". i j k l m n ' d o p q ' r s t ' e q q u ' c l k j i ",
". v w x y z A ' q B C D ' ' ' / ' / ' ' ' ' u E x w v ",
". F y G H I A ' J D D K t L L t ' t M D J q N O P Q F ",
"R S T U V W J ' ' ' ' ' ' ' ' ' ' X Y Z `  .W ..U T +.",
"R +.@.@.W #.9 $.%.%.&.*.*.*.*.*.=.-.;.>.>.#.,.'.@.@.+.",
"R S ).).S !.!.!.~.{.{.].^././.^.(.{.{.~.~._.).).).).S ",
". R :.R R 0 <.[.}.|.1.2.2.3.3.4.2.1.|.}.5.6.:.R R R R "};
