/* XPM */
static char * restoreI_xpm[] = {
"27 30 36 1",
" 	c None",
".	c #0D0D0D",
"+	c #F4F4F4",
"@	c #FEFEFE",
"#	c #EBEBEB",
"$	c #F0F0F0",
"%	c #CFCFCF",
"&	c #BABABA",
"*	c #D6D6D6",
"=	c #E5E5E5",
"-	c #B3B3B3",
";	c #FAFAFA",
">	c #B8B8B8",
",	c #DEDEDE",
"'	c #C1C1C1",
")	c #AEAEAE",
"!	c #A0A0A0",
"~	c #BDBDBD",
"{	c #D9D9D9",
"]	c #D3D3D3",
"^	c #AAAAAA",
"/	c #C8C8C8",
"(	c #A6A6A6",
"_	c #9D9D9D",
":	c #0B0B0B",
"<	c #989898",
"[	c #595959",
"}	c #767676",
"|	c #7D7D7D",
"1	c #616161",
"2	c #797979",
"3	c #686868",
"4	c #E0E0E0",
"5	c #707070",
"6	c #808080",
"7	c #868686",
".+@@@@@@@@@@@@@@@@@@@@@@@@+",
".#++++++++$%&&&&&&&&&&*#$$#",
".=#=#=#####-;;;;;;;;;@>###=",
".,,,,,'))))!~~~~~{+;$+),,,,",
".*]]]]^+;+++$+;++~++++^**]*",
".%////($$$+$$$+$$_((^#(///%",
"./~~~~!$$$$$$$$$$!~~_$!~&~/",
":<[[[[}{}}}|!|}}{}[[}{}[[[<",
".<11112{2112,}2|{|222{2111<",
"._3333|4|33|,,,!,(,,,,|333_",
".!5555646666|777,66|66|555!",
".!2}22644444444,,7222}2}22_",
".(||||766776776767||||||||(",
".(&&>&&>&&&&&&&~>&&&&&&&&&(",
"::::::::..::::::::::::::::.",
".+@@@@@@@@@@@@@@@@@@@@@@@@+",
".#++++++++$%&&&&&&&&&&*#$$#",
".=#=#=#####-;;;;;;;;;@>###=",
".,,,,,'))))!~~~~~{+;$+),,,,",
".*]]]]^+;+++$+;++~++++^**]*",
".%////($$$+$$$+$$_((^#(///%",
"./~~~~!$$$$$$$$$$!~~_$!~&~/",
":<[[[[}{}}}|!|}}{}[[}{}[[[<",
".<11112{2112,}2|{|222{2111<",
"._3333|4|33|,,,!,(,,,,|333_",
".!5555646666|777,66|66|555!",
".!2}22644444444,,7222}2}22_",
".(||||766776776767||||||||(",
".(&&>&&>&&&&&&&~>&&&&&&&&&(",
"::::::::..::::::::::::::::."};
