/* XPM */
static char * icewm_xpm[] = {
"60 30 1181 2",
"  	c None",
". 	c #B4B6B5",
"+ 	c #B1B3B2",
"@ 	c #4C5D6C",
"# 	c #0B3F6B",
"$ 	c #7E9EB7",
"% 	c #D3DFE7",
"& 	c #D0DAE2",
"* 	c #BDCCD7",
"= 	c #B6C8D4",
"- 	c #B2C4D2",
"; 	c #AFC2D0",
"> 	c #ADC0CF",
", 	c #ABBFCE",
"' 	c #ABBECD",
") 	c #AABECD",
"! 	c #ACC0CE",
"~ 	c #AEC1CF",
"{ 	c #B0C3D1",
"] 	c #B4C6D3",
"^ 	c #B9C9D5",
"/ 	c #C3D0DA",
"( 	c #D7E0E7",
"_ 	c #BCCEDC",
": 	c #487294",
"< 	c #10375E",
"[ 	c #808689",
"} 	c #979998",
"| 	c #676867",
"1 	c #111315",
"2 	c #052340",
"3 	c #21517A",
"4 	c #ACC1D1",
"5 	c #D0DAE1",
"6 	c #B6C6D2",
"7 	c #ACBFCD",
"8 	c #A6BBCA",
"9 	c #A1B7C7",
"0 	c #9DB4C4",
"a 	c #9AB1C2",
"b 	c #98AFC1",
"c 	c #98AFC0",
"d 	c #99B0C1",
"e 	c #9AB2C3",
"f 	c #9BB2C3",
"g 	c #9CB3C5",
"h 	c #9DB4C5",
"i 	c #9EB6C6",
"j 	c #A1B8C8",
"k 	c #A4BACA",
"l 	c #A9BECC",
"m 	c #AFC1CF",
"n 	c #C1CED7",
"o 	c #D1DCE4",
"p 	c #7495AF",
"q 	c #013361",
"r 	c #1A2B38",
"s 	c #272727",
"t 	c #747574",
"u 	c #999B9A",
"v 	c #8B8D8C",
"w 	c #797B7A",
"x 	c #545554",
"y 	c #121213",
"z 	c #04223F",
"A 	c #25557C",
"B 	c #B9CBD7",
"C 	c #C0CDD5",
"D 	c #A7BAC7",
"E 	c #9EB3C3",
"F 	c #97ADBE",
"G 	c #91A8BA",
"H 	c #8BA4B6",
"I 	c #85A1B4",
"J 	c #80A0B4",
"K 	c #7F9FB4",
"L 	c #7E9FB4",
"M 	c #819FB3",
"N 	c #86A0B3",
"O 	c #8AA3B6",
"P 	c #8DA6B9",
"Q 	c #8EA8BC",
"R 	c #8FAABD",
"S 	c #90ABBE",
"T 	c #92ACBF",
"U 	c #94ADC0",
"V 	c #97B0C1",
"W 	c #9CB3C4",
"X 	c #A3B7C6",
"Y 	c #AEBFCB",
"Z 	c #CDD7DE",
"` 	c #84A3B9",
" .	c #033763",
"..	c #192630",
"+.	c #222323",
"@.	c #606161",
"#.	c #7B7C7B",
"$.	c #898B8A",
"%.	c #828383",
"&.	c #5D5F5E",
"*.	c #191A1A",
"=.	c #051D33",
"-.	c #215077",
";.	c #B3C4D1",
">.	c #B4C3CD",
",.	c #9BB0BF",
"'.	c #88A1B4",
").	c #809BAE",
"!.	c #7598AC",
"~.	c #728EA0",
"{.	c #7B7F8B",
"].	c #876E72",
"^.	c #8C6466",
"/.	c #8B6869",
"(.	c #81787F",
"_.	c #728A9D",
":.	c #7193AA",
"<.	c #7B97AC",
"[.	c #819CB1",
"}.	c #839FB5",
"|.	c #84A1B6",
"1.	c #85A2B7",
"2.	c #87A3B8",
"3.	c #88A4B9",
"4.	c #8AA6B9",
"5.	c #8FA8BA",
"6.	c #A2B5C3",
"7.	c #C4CFD7",
"8.	c #7D9CB2",
"9.	c #023059",
"0.	c #1E262A",
"a.	c #2E2F2F",
"b.	c #696A69",
"c.	c #828483",
"d.	c #868887",
"e.	c #6E706F",
"f.	c #2F3030",
"g.	c #09151F",
"h.	c #0B3E68",
"i.	c #A0B5C5",
"j.	c #AFBEC9",
"k.	c #91A7B8",
"l.	c #879FB2",
"m.	c #7E98AC",
"n.	c #7490A5",
"o.	c #6D8699",
"p.	c #8E585E",
"q.	c #A93931",
"r.	c #BA321E",
"s.	c #C13016",
"t.	c #C53516",
"u.	c #C63916",
"v.	c #C33F1C",
"w.	c #B44B2F",
"x.	c #8D6863",
"y.	c #6A8294",
"z.	c #6D8BA0",
"A.	c #7491A7",
"B.	c #7796AC",
"C.	c #7998AF",
"D.	c #7A99B0",
"E.	c #7B9AB1",
"F.	c #7C9AB1",
"G.	c #7E9BB0",
"H.	c #839CB1",
"I.	c #8AA2B3",
"J.	c #96AAB9",
"K.	c #BCC8D1",
"L.	c #5D829E",
"M.	c #092A4A",
"N.	c #242525",
"O.	c #434444",
"P.	c #727373",
"Q.	c #747675",
"R.	c #4D4E4E",
"S.	c #0C0E0E",
"T.	c #02284E",
"U.	c #6D8EA7",
"V.	c #B0BEC9",
"W.	c #89A0B2",
"X.	c #7591A6",
"Y.	c #6C8AA0",
"Z.	c #5E8198",
"`.	c #716773",
" +	c #C22517",
".+	c #C52F18",
"++	c #C73F1F",
"@+	c #CA4A22",
"#+	c #CE5123",
"$+	c #D05625",
"%+	c #D25925",
"&+	c #D45621",
"*+	c #D9511A",
"=+	c #9F6855",
"-+	c #517590",
";+	c #5E7C99",
">+	c #66869E",
",+	c #6A8BA2",
"'+	c #6C8DA5",
")+	c #6D8EA6",
"!+	c #6D8DA4",
"~+	c #6F8CA1",
"{+	c #738EA2",
"]+	c #7B93A7",
"^+	c #8DA1B0",
"/+	c #B2C0CA",
"(+	c #27587E",
"_+	c #17232F",
":+	c #262626",
"<+	c #5D5E5D",
"[+	c #767877",
"}+	c #7D7E80",
"|+	c #616263",
"1+	c #202020",
"2+	c #071A2C",
"3+	c #27577C",
"4+	c #ACBCC8",
"5+	c #859CAE",
"6+	c #7691A6",
"7+	c #6C8AA1",
"8+	c #65859D",
"9+	c #5D7D95",
"0+	c #4C728A",
"a+	c #8C5350",
"b+	c #CA361B",
"c+	c #C94721",
"d+	c #CE5323",
"e+	c #D35D27",
"f+	c #D76629",
"g+	c #DA6C2A",
"h+	c #DB702A",
"i+	c #E36F2A",
"j+	c #7B625F",
"k+	c #5E826D",
"l+	c #6D9168",
"m+	c #54758B",
"n+	c #557697",
"o+	c #597B99",
"p+	c #5B7D99",
"q+	c #5C7C98",
"r+	c #5B7A96",
"s+	c #5C7792",
"t+	c #5B758A",
"u+	c #638183",
"v+	c #728998",
"w+	c #92A3B1",
"x+	c #87A1B3",
"y+	c #05355E",
"z+	c #262A2C",
"A+	c #383839",
"B+	c #68686A",
"C+	c #767779",
"D+	c #6E6F71",
"E+	c #454546",
"F+	c #0A0C0E",
"G+	c #012B51",
"H+	c #7E9AAF",
"I+	c #8FA3B3",
"J+	c #6F8A9F",
"K+	c #64839A",
"L+	c #5D7F97",
"M+	c #577A93",
"N+	c #4F728B",
"O+	c #48667B",
"P+	c #B14A35",
"Q+	c #CD471E",
"R+	c #D05825",
"S+	c #DC732B",
"T+	c #DE7D2B",
"U+	c #E0832C",
"V+	c #E1872C",
"W+	c #E2872B",
"X+	c #DE8436",
"Y+	c #49515F",
"Z+	c #82A35E",
"`+	c #8EBB39",
" @	c #749F47",
".@	c #5D8460",
"+@	c #517673",
"@@	c #4D7179",
"#@	c #4B6F76",
"$@	c #466D67",
"%@	c #3B6C53",
"&@	c #31713E",
"*@	c #53864C",
"=@	c #5C7483",
"-@	c #6B8396",
";@	c #9FAFBC",
">@	c #366385",
",@	c #152A3D",
"'@	c #282828",
")@	c #565758",
"!@	c #707173",
"~@	c #5B5C5E",
"{@	c #252525",
"]@	c #081521",
"^@	c #1F5178",
"/@	c #97ABBA",
"(@	c #6D889C",
"_@	c #5E7C94",
":@	c #557790",
"<@	c #507590",
"[@	c #4B718D",
"}@	c #3F6986",
"|@	c #525C6B",
"1@	c #C94C26",
"2@	c #D15623",
"3@	c #D86929",
"4@	c #DD792C",
"5@	c #E0872C",
"6@	c #E3902D",
"7@	c #E5972E",
"8@	c #E69B2E",
"9@	c #EE9F2C",
"0@	c #BC8041",
"a@	c #324D5C",
"b@	c #9BBA5D",
"c@	c #9ABF49",
"d@	c #90BA3E",
"e@	c #81B037",
"f@	c #6EA038",
"g@	c #5D933A",
"h@	c #4D8937",
"i@	c #3D8232",
"j@	c #2C7C30",
"k@	c #2D8133",
"l@	c #4C7656",
"m@	c #455E77",
"n@	c #587387",
"o@	c #7D93A3",
"p@	c #7E99AE",
"q@	c #063056",
"r@	c #292A2B",
"s@	c #3F3F40",
"t@	c #606163",
"u@	c #696A6C",
"v@	c #67686A",
"w@	c #494A4B",
"x@	c #0D0D0E",
"y@	c #04213C",
"z@	c #5A7E9A",
"A@	c #859BAC",
"B@	c #5A7990",
"C@	c #4F718B",
"D@	c #486F8A",
"E@	c #456E8C",
"F@	c #416B88",
"G@	c #316181",
"H@	c #745755",
"I@	c #D65321",
"J@	c #D66428",
"K@	c #DD792B",
"L@	c #E1892D",
"M@	c #E8A22E",
"N@	c #EAA92E",
"O@	c #EBAD2E",
"P@	c #F8B32D",
"Q@	c #7F6748",
"R@	c #44655E",
"S@	c #B1CD68",
"T@	c #A4C359",
"U@	c #9BBF4E",
"V@	c #90B941",
"W@	c #80AE3B",
"X@	c #6DA13B",
"Y@	c #5B953A",
"Z@	c #498B39",
"`@	c #368035",
" #	c #3A833B",
".#	c #3D5E5C",
"+#	c #38556F",
"@#	c #4A687E",
"##	c #5F7B90",
"$#	c #8BA1B2",
"%#	c #164A73",
"&#	c #1F2933",
"*#	c #2C2C2D",
"=#	c #575759",
"-#	c #616264",
";#	c #58595B",
">#	c #363637",
",#	c #090B0D",
"'#	c #023058",
")#	c #7290A6",
"!#	c #678296",
"~#	c #4D6F89",
"{#	c #436A86",
"]#	c #3F6987",
"^#	c #3C6988",
"/#	c #366484",
"(#	c #2A5A7A",
"_#	c #A2563F",
":#	c #DA5C22",
"<#	c #DB722A",
"[#	c #E0862C",
"}#	c #E9A62E",
"|#	c #ECB12E",
"1#	c #EDB82D",
"2#	c #EEBD2C",
"3#	c #F5BA32",
"4#	c #4A4D4E",
"5#	c #76956A",
"6#	c #BED677",
"7#	c #ADC969",
"8#	c #A4C45B",
"9#	c #9ABE4D",
"0#	c #8CB73F",
"a#	c #7AAA3B",
"b#	c #669B3B",
"c#	c #528F39",
"d#	c #3F8636",
"e#	c #447F43",
"f#	c #2F4E5F",
"g#	c #32546E",
"h#	c #40627B",
"i#	c #4F7088",
"j#	c #8299A9",
"k#	c #4A7391",
"l#	c #13293E",
"m#	c #2B2B2C",
"n#	c #4A4B4C",
"o#	c #595A5C",
"p#	c #5C5D5F",
"q#	c #4D4E50",
"r#	c #262627",
"s#	c #081016",
"t#	c #134971",
"u#	c #819DAF",
"v#	c #56748C",
"w#	c #446A85",
"x#	c #3A6583",
"y#	c #366585",
"z#	c #336485",
"A#	c #2A5E80",
"B#	c #31546F",
"C#	c #C0562E",
"D#	c #DB6526",
"E#	c #E57F2B",
"F#	c #EE952C",
"G#	c #F4A72D",
"H#	c #F6B72D",
"I#	c #F3C22D",
"J#	c #F0C62C",
"K#	c #F6CD29",
"L#	c #D2A838",
"M#	c #233F54",
"N#	c #A5BE7B",
"O#	c #C2D881",
"P#	c #B6CE75",
"Q#	c #ACC968",
"R#	c #A2C257",
"S#	c #95BC47",
"T#	c #85B23C",
"U#	c #6FA23B",
"V#	c #5A943A",
"W#	c #498D38",
"X#	c #3D704B",
"Y#	c #254765",
"Z#	c #2E5570",
"`#	c #39607B",
" $	c #486C86",
".$	c #6C879B",
"+$	c #6B8EA6",
"@$	c #0C2B4A",
"#$	c #2A2B2B",
"$$	c #404041",
"%$	c #515254",
"&$	c #555658",
"*$	c #444446",
"=$	c #181919",
"-$	c #071521",
";$	c #285D81",
">$	c #7C9AAB",
",$	c #4E7089",
"'$	c #3F6783",
")$	c #356382",
"!$	c #2F6284",
"~$	c #2B5F83",
"{$	c #1C587D",
"]$	c #5E555A",
"^$	c #E65D23",
"/$	c #DA692A",
"($	c #BF682F",
"_$	c #9D6234",
":$	c #926337",
"<$	c #AA6F32",
"[$	c #D9902D",
"}$	c #FAC228",
"|$	c #FFDF26",
"1$	c #9B8640",
"2$	c #29515B",
"3$	c #C6D98B",
"4$	c #C5D889",
"5$	c #BCD27E",
"6$	c #B3CD70",
"7$	c #A7C660",
"8$	c #77A73B",
"9$	c #60983A",
"0$	c #52913C",
"a$	c #2F5D56",
"b$	c #214869",
"c$	c #2B5674",
"d$	c #355F7D",
"e$	c #5E7D93",
"f$	c #6D93A9",
"g$	c #06355B",
"h$	c #27292B",
"i$	c #373738",
"j$	c #4B4B4D",
"k$	c #3B3C3D",
"l$	c #0E0F0F",
"m$	c #06192C",
"n$	c #225B83",
"o$	c #6C8CA1",
"p$	c #406986",
"q$	c #346384",
"r$	c #22597E",
"s$	c #114E76",
"t$	c #594E4F",
"u$	c #68443A",
"v$	c #283C4E",
"w$	c #0F4060",
"x$	c #0E486E",
"y$	c #114C72",
"z$	c #0D4266",
"A$	c #112D4B",
"B$	c #4E3E36",
"C$	c #D1942E",
"D$	c #515546",
"E$	c #567E69",
"F$	c #D8E799",
"G$	c #C7DA8E",
"H$	c #C0D483",
"I$	c #B7CF77",
"J$	c #ACC866",
"K$	c #9FC154",
"L$	c #91B943",
"M$	c #7CAB3B",
"N$	c #669C3A",
"O$	c #4C8940",
"P$	c #1B4A5C",
"Q$	c #1E4B6E",
"R$	c #2A5979",
"S$	c #376381",
"T$	c #456D89",
"U$	c #5B7B92",
"V$	c #5B86A1",
"W$	c #043E68",
"X$	c #22272B",
"Y$	c #303031",
"Z$	c #454648",
"`$	c #48494B",
" %	c #363739",
".%	c #0A0A0B",
"+%	c #052136",
"@%	c #024374",
"#%	c #386281",
"$%	c #446B86",
"%%	c #2B5A7C",
"&%	c #195076",
"*%	c #0D4A74",
"=%	c #064670",
"-%	c #034066",
";%	c #024976",
">%	c #00649A",
",%	c #1C86BE",
"'%	c #47A0D3",
")%	c #6EB4E0",
"!%	c #89C4E9",
"~%	c #98CEEC",
"{%	c #86B9D3",
"]%	c #3D7090",
"^%	c #0F3353",
"/%	c #042F4D",
"(%	c #92AF78",
"_%	c #E3EEA1",
":%	c #CDDE93",
"<%	c #C2D687",
"[%	c #B9D07A",
"}%	c #AECA6A",
"|%	c #A1C257",
"1%	c #93BB45",
"2%	c #6EA43A",
"3%	c #417B48",
"4%	c #01375E",
"5%	c #064068",
"6%	c #10496F",
"7%	c #1F5377",
"8%	c #356281",
"9%	c #496D87",
"0%	c #20577F",
"a%	c #004071",
"b%	c #1F272D",
"c%	c #2D2D2E",
"d%	c #434445",
"e%	c #1C1D21",
"f%	c #18181B",
"g%	c #030304",
"h%	c #022036",
"i%	c #004577",
"j%	c #00375E",
"k%	c #053B60",
"l%	c #013B64",
"m%	c #003F6A",
"n%	c #02446F",
"o%	c #02426B",
"p%	c #0B4C76",
"q%	c #1A85C2",
"r%	c #1294D1",
"s%	c #2D9ED5",
"t%	c #57A8D9",
"u%	c #75B4DF",
"v%	c #90C4E7",
"w%	c #ACD4ED",
"x%	c #C0E2F7",
"y%	c #D5F2FF",
"z%	c #7AA3B9",
"A%	c #002C4F",
"B%	c #174F4F",
"C%	c #7DA46B",
"D%	c #C7DC8A",
"E%	c #CFE08C",
"F%	c #C4D87E",
"G%	c #B7D06D",
"H%	c #ABCA59",
"I%	c #9CC245",
"J%	c #85B33C",
"K%	c #62993D",
"L%	c #275E52",
"M%	c #003B67",
"N%	c #03436D",
"O%	c #01426D",
"P%	c #003E69",
"Q%	c #023C64",
"R%	c #04395E",
"S%	c #003E6B",
"T%	c #004679",
"U%	c #121A22",
"V%	c #202021",
"W%	c #262629",
"X%	c #1C1D1F",
"Y%	c #18191A",
"Z%	c #040405",
"`%	c #031F36",
" &	c #01487C",
".&	c #023B63",
"+&	c #013960",
"@&	c #033E67",
"#&	c #03436E",
"$&	c #044670",
"%&	c #014068",
"&&	c #145B89",
"*&	c #1988C6",
"=&	c #118EC9",
"-&	c #289AD1",
";&	c #52A5D7",
">&	c #71B2DD",
",&	c #8BC1E4",
"'&	c #A5D0EC",
")&	c #B6DAEF",
"!&	c #CCEAFB",
"~&	c #578AA9",
"{&	c #455F59",
"]&	c #72837C",
"^&	c #033851",
"/&	c #185253",
"(&	c #518262",
"_&	c #719C67",
":&	c #729F5F",
"<&	c #5B8F53",
"[&	c #3B754C",
"}&	c #1C574E",
"|&	c #104453",
"1&	c #013D62",
"2&	c #03466E",
"3&	c #044975",
"4&	c #034773",
"5&	c #013E66",
"6&	c #01385E",
"7&	c #024371",
"8&	c #00477B",
"9&	c #141C22",
"0&	c #222223",
"a&	c #262728",
"b&	c #060606",
"c&	c #031B2C",
"d&	c #004C82",
"e&	c #023E69",
"f&	c #023B61",
"g&	c #034069",
"h&	c #03446E",
"i&	c #034670",
"j&	c #034168",
"k&	c #1D6EA1",
"l&	c #1584C2",
"m&	c #118CC7",
"n&	c #1F97CF",
"o&	c #49A3D5",
"p&	c #69AEDB",
"q&	c #83BCE2",
"r&	c #9BCBE9",
"s&	c #B0D6EF",
"t&	c #B9DCF2",
"u&	c #1C5476",
"v&	c #A19E69",
"w&	c #FFFAB8",
"x&	c #D2C893",
"y&	c #728171",
"z&	c #30535E",
"A&	c #204A58",
"B&	c #214A56",
"C&	c #2E4E52",
"D&	c #4F5C4B",
"E&	c #9A7B3C",
"F&	c #9A7D38",
"G&	c #07486B",
"H&	c #014A77",
"I&	c #044E7B",
"J&	c #034A78",
"K&	c #034571",
"L&	c #024069",
"M&	c #023A60",
"N&	c #024779",
"O&	c #014575",
"P&	c #171C1F",
"Q&	c #242425",
"R&	c #252627",
"S&	c #1B1C1E",
"T&	c #080808",
"U&	c #04131E",
"V&	c #004E85",
"W&	c #024574",
"X&	c #023B62",
"Y&	c #03416A",
"Z&	c #03446F",
"`&	c #02446D",
" *	c #0A496F",
".*	c #1F7AB4",
"+*	c #137FBD",
"@*	c #1189C5",
"#*	c #1694CD",
"$*	c #399FD3",
"%*	c #5CA9D8",
"&*	c #75B4DE",
"**	c #A3D1EE",
"=*	c #90BDDD",
"-*	c #1B4A5B",
";*	c #E1CC83",
">*	c #FCEAB1",
",*	c #FDE8A7",
"'*	c #FFE897",
")*	c #FCDB80",
"!*	c #F3CF69",
"~*	c #F3CA53",
"{*	c #FBCC39",
"]*	c #FFCA29",
"^*	c #FFBD1F",
"/*	c #897F41",
"(*	c #004878",
"_*	c #03517F",
":*	c #045180",
"<*	c #034D7C",
"[*	c #02416B",
"}*	c #014F84",
"|*	c #033F68",
"1*	c #1B1C1D",
"2*	c #222325",
"3*	c #0C0C0D",
"4*	c #050B11",
"5*	c #004B7F",
"6*	c #014B7F",
"7*	c #023C63",
"8*	c #03426C",
"9*	c #03456E",
"0*	c #014169",
"a*	c #11537D",
"b*	c #1579B8",
"c*	c #127AB9",
"d*	c #1385C1",
"e*	c #118FC9",
"f*	c #2499D0",
"g*	c #4AA3D5",
"h*	c #65ADDA",
"i*	c #79B7E0",
"j*	c #92C8EC",
"k*	c #528BB3",
"l*	c #395A54",
"m*	c #FCE294",
"n*	c #F7E29D",
"o*	c #F7DE93",
"p*	c #F8DC87",
"q*	c #FAD978",
"r*	c #FDD864",
"s*	c #FED54A",
"t*	c #FECF30",
"u*	c #FDC028",
"v*	c #F4AD23",
"w*	c #4C695B",
"x*	c #004C7F",
"y*	c #055685",
"z*	c #045585",
"A*	c #03507F",
"B*	c #034975",
"C*	c #02426C",
"D*	c #015691",
"E*	c #073351",
"F*	c #1D1D1E",
"G*	c #282829",
"H*	c #1F2021",
"I*	c #18191B",
"J*	c #111212",
"K*	c #050607",
"L*	c #013E68",
"M*	c #01538A",
"N*	c #023F67",
"O*	c #02436C",
"P*	c #03446D",
"Q*	c #014065",
"R*	c #1D6695",
"S*	c #0B75B6",
"T*	c #0F77B5",
"U*	c #157FBD",
"V*	c #1289C5",
"W*	c #1492CC",
"X*	c #2D9CD1",
"Y*	c #4EA5D6",
"Z*	c #63ACDA",
"`*	c #79B9E5",
" =	c #25648E",
".=	c #818755",
"+=	c #FFE588",
"@=	c #F8DB86",
"#=	c #F9DA7E",
"$=	c #FAD873",
"%=	c #FAD664",
"&=	c #FBD34F",
"*=	c #FCD036",
"==	c #FBC52A",
"-=	c #FEB826",
";=	c #D19B29",
">=	c #1C5870",
",=	c #015586",
"'=	c #065A8B",
")=	c #045789",
"!=	c #035281",
"~=	c #034B77",
"{=	c #024977",
"]=	c #005994",
"^=	c #0C283C",
"/=	c #1C1D1E",
"(=	c #1A1B1D",
"_=	c #161617",
":=	c #050506",
"<=	c #03263E",
"[=	c #015A96",
"}=	c #024775",
"|=	c #02426A",
"1=	c #02436B",
"2=	c #064266",
"3=	c #1D6FA5",
"4=	c #016CB0",
"5=	c #0A73B4",
"6=	c #147CBB",
"7=	c #1485C2",
"8=	c #128DC9",
"9=	c #1695CE",
"0=	c #2C9BD1",
"a=	c #47A4D6",
"b=	c #58A3D3",
"c=	c #12506F",
"d=	c #C7B45F",
"e=	c #FFDE72",
"f=	c #FAD76D",
"g=	c #FAD666",
"h=	c #FBD55C",
"i=	c #FBD34B",
"j=	c #FCD037",
"k=	c #FBC82B",
"l=	c #F8BA28",
"m=	c #FDAE21",
"n=	c #A38839",
"o=	c #085582",
"p=	c #075C8E",
"q=	c #075E91",
"r=	c #055A8D",
"s=	c #045383",
"t=	c #034B78",
"u=	c #025489",
"v=	c #00558D",
"w=	c #141D24",
"x=	c #252626",
"y=	c #28292A",
"z=	c #191A1C",
"A=	c #191A1B",
"B=	c #060707",
"C=	c #06131C",
"D=	c #005890",
"E=	c #024167",
"F=	c #014067",
"G=	c #135075",
"H=	c #1A78B5",
"I=	c #0470B1",
"J=	c #0670AB",
"K=	c #0870A7",
"L=	c #0A70A7",
"M=	c #0A76AF",
"N=	c #0D83BF",
"O=	c #1293CE",
"P=	c #229ED7",
"Q=	c #2B86B8",
"R=	c #26565C",
"S=	c #F2CD54",
"T=	c #FED655",
"U=	c #FBD452",
"V=	c #FBD23F",
"W=	c #FCCE31",
"X=	c #FBC62A",
"Y=	c #F9BB28",
"Z=	c #F6AE25",
"`=	c #F7A41D",
" -	c #697554",
".-	c #00578D",
"+-	c #0A6295",
"@-	c #096397",
"#-	c #075D8F",
"$-	c #045484",
"%-	c #034C79",
"&-	c #024874",
"*-	c #01629F",
"=-	c #054167",
"--	c #2A2A2B",
";-	c #272729",
">-	c #101111",
",-	c #070707",
"'-	c #023F65",
")-	c #0063A0",
"!-	c #024670",
"~-	c #013E64",
"{-	c #195981",
"]-	c #176A99",
"^-	c #07517C",
"/-	c #074970",
"(-	c #084C71",
"_-	c #0A4F75",
":-	c #095177",
"<-	c #06567F",
"[-	c #066698",
"}-	c #1088C3",
"|-	c #136EA0",
"1-	c #6A7B51",
"2-	c #FFD637",
"3-	c #FCCF34",
"4-	c #FCCE33",
"5-	c #FCCC2F",
"6-	c #FCC82B",
"7-	c #FAC029",
"8-	c #F8B727",
"9-	c #F5AD25",
"0-	c #F6A321",
"a-	c #E09720",
"b-	c #36666C",
"c-	c #055E93",
"d-	c #0C679B",
"e-	c #0A659B",
"f-	c #055585",
"g-	c #034A76",
"h-	c #02598F",
"i-	c #0064A1",
"j-	c #0F2634",
"k-	c #252526",
"l-	c #1D1E1F",
"m-	c #17181A",
"n-	c #171819",
"o-	c #07131B",
"p-	c #00619C",
"q-	c #025C92",
"r-	c #034268",
"s-	c #03446A",
"t-	c #044368",
"u-	c #084970",
"v-	c #0A537D",
"w-	c #0C5C89",
"x-	c #0C628F",
"y-	c #0A6591",
"z-	c #0A638C",
"A-	c #095D83",
"B-	c #0A5F88",
"C-	c #035682",
"D-	c #AD9D49",
"E-	c #FFC824",
"F-	c #FBC028",
"G-	c #FABE29",
"H-	c #F9BC28",
"I-	c #F7B627",
"J-	c #F6B026",
"K-	c #F3A823",
"L-	c #F1A021",
"M-	c #F8991A",
"N-	c #BC8A2D",
"O-	c #136184",
"P-	c #0B6698",
"Q-	c #0D6BA0",
"R-	c #0B679D",
"S-	c #086092",
"T-	c #065483",
"U-	c #016CAB",
"V-	c #034973",
"W-	c #1C1D1D",
"X-	c #2B2C2C",
"Y-	c #29292A",
"Z-	c #0E0E0F",
"`-	c #042B44",
" ;	c #0170B1",
".;	c #045382",
"+;	c #054870",
"@;	c #0A5987",
"#;	c #0D6494",
"$;	c #0E6EA1",
"%;	c #0C76AA",
"&;	c #0B79AD",
"*;	c #0C78A9",
"=;	c #0D74A3",
"-;	c #0A6C96",
";;	c #02648E",
">;	c #447369",
",;	c #C79B32",
"';	c #FDB021",
");	c #FFB11F",
"!;	c #FDAC20",
"~;	c #FBA720",
"{;	c #F9A31E",
"];	c #FA9F1B",
"^;	c #FA9A19",
"/;	c #F1971C",
"(;	c #7D8053",
"_;	c #016295",
":;	c #0D6D9F",
"<;	c #0E6EA4",
"[;	c #0C699E",
"};	c #096093",
"|;	c #075381",
"1;	c #046BA6",
"2;	c #016CAA",
"3;	c #11222D",
"4;	c #2E2E2F",
"5;	c #070708",
"6;	c #090A0B",
"7;	c #015587",
"8;	c #0473B3",
"9;	c #075685",
"0;	c #095786",
"a;	c #0B6396",
"b;	c #0F6FA5",
"c;	c #0E7BB2",
"d;	c #0C84BC",
"e;	c #0D88C1",
"f;	c #0F89C0",
"g;	c #0D87BC",
"h;	c #0882B3",
"i;	c #067CA8",
"j;	c #00719E",
"k;	c #0A6C8C",
"l;	c #4E7968",
"m;	c #9A8E44",
"n;	c #BC9834",
"o;	c #C7982F",
"p;	c #C09332",
"q;	c #A88B3B",
"r;	c #7A7C4F",
"s;	c #356B71",
"t;	c #0D668D",
"u;	c #096E9E",
"v;	c #0C74A8",
"w;	c #0F70A6",
"x;	c #0D699F",
"y;	c #0A5C8E",
"z;	c #086CA3",
"A;	c #0478B9",
"B;	c #0A3957",
"C;	c #2D2E2E",
"D;	c #131414",
"E;	c #090909",
"F;	c #091015",
"G;	c #046FAD",
"H;	c #087DBB",
"I;	c #0D679D",
"J;	c #0F77AF",
"K;	c #0D82BD",
"L;	c #0D8CC7",
"M;	c #0F92CD",
"N;	c #0F96D0",
"O;	c #0C98CE",
"P;	c #0899CB",
"Q;	c #0896C4",
"R;	c #0990B9",
"S;	c #0588AF",
"T;	c #007EA7",
"U;	c #00769E",
"V;	c #037295",
"W;	c #056F90",
"X;	c #036C8F",
"Y;	c #006891",
"Z;	c #006696",
"`;	c #026C9D",
" >	c #0B74A4",
".>	c #0C7AAC",
"+>	c #0B7AB0",
"@>	c #0E74AA",
"#>	c #0D669B",
"$>	c #0C73A7",
"%>	c #0983C3",
"&>	c #06517C",
"*>	c #191C1E",
"=>	c #1B1B1D",
"->	c #171719",
";>	c #091C27",
">>	c #0880C4",
",>	c #0D8CC4",
"'>	c #0F74A8",
")>	c #0E77B0",
"!>	c #0C86C0",
"~>	c #0E8FCA",
"{>	c #1095D1",
"]>	c #0F9CD6",
"^>	c #0BA3DB",
"/>	c #0BAADE",
"(>	c #0BADDB",
"_>	c #0AACD6",
":>	c #0AA7CD",
"<>	c #09A0C3",
"[>	c #0899BB",
"}>	c #0793B5",
"|>	c #068DB1",
"1>	c #0689AF",
"2>	c #0685AE",
"3>	c #0682AF",
"4>	c #0982B3",
"5>	c #0D84B8",
"6>	c #0D85BB",
"7>	c #0C7FB8",
"8>	c #0D73AA",
"9>	c #1082B4",
"0>	c #0E8ECA",
"a>	c #096094",
"b>	c #161D22",
"c>	c #323233",
"d>	c #131416",
"e>	c #121315",
"f>	c #0D0E0E",
"g>	c #0E0E0E",
"h>	c #0B2E43",
"i>	c #0B7EBC",
"j>	c #1299CC",
"k>	c #108DBF",
"l>	c #0C84C1",
"m>	c #0E8FCB",
"n>	c #1198D3",
"o>	c #0FA0DA",
"p>	c #0BABE1",
"q>	c #0CB6E7",
"r>	c #0CBDEA",
"s>	c #0BC0E9",
"t>	c #0ABFE5",
"u>	c #09BCDF",
"v>	c #09B7D9",
"w>	c #09B1D4",
"x>	c #0AACD0",
"y>	c #0AA6CE",
"z>	c #099FCC",
"A>	c #0898CA",
"B>	c #0993C9",
"C>	c #0E90C8",
"D>	c #0E89C4",
"E>	c #0D86BE",
"F>	c #0F9AC7",
"G>	c #1095CE",
"H>	c #0B6192",
"I>	c #151E25",
"J>	c #232324",
"K>	c #323333",
"L>	c #141517",
". . . . . . . . . . . . . . . . . . . . . + @ # $ % & * = - ; > , ' ) ) , ! ~ { ] ^ / ( _ : < [ . . . . . . . . . . . . ",
". . . . . . . . . . . . . . . . . . } | 1 2 3 4 5 6 7 8 9 0 a b c b d e f g h i j k l m n o p q r s t u . . . . . . . . ",
"v v v v v v v v v v v v v v v v v w x y z A B C D E F G H I J K L M N O P Q R S T U V W X Y Z `  ...+.@.#.v v v v v v v ",
"$.$.$.$.$.$.$.$.$.$.$.$.$.$.$.$.%.&.*.=.-.;.>.,.G '.).!.~.{.].^./.(._.:.<.[.}.|.1.2.3.4.5.F 6.7.8.9.0.a.b.c.$.$.$.$.$.$.",
"d.d.d.d.d.d.d.d.d.d.d.d.d.d.d.d.e.f.g.h.i.j.k.l.m.n.o.p.q.r.s.t.u.v.w.x.y.z.A.B.C.D.E.F.G.H.I.J.K.L.M.N.O.P.d.d.d.d.d.d.",
"c.c.c.c.c.c.c.c.c.c.c.c.c.c.c.Q.R.S.T.U.V.W.m.X.Y.Z.`. +.+++@+#+$+%+&+*+=+-+;+>+,+'+)+)+!+~+{+]+^+/+(+_+:+<+[+c.c.c.c.c.",
"}+}+}+}+}+}+}+}+}+}+}+}+}+}+}+|+1+2+3+4+5+6+7+8+9+0+a+b+c+d+e+f+g+h+h+i+j+k+l+m+n+o+p+q+r+s+t+u+v+w+x+y+z+A+B+}+}+}+}+}+",
"C+C+C+C+C+C+C+C+C+C+C+C+C+C+D+E+F+G+H+I+J+K+L+M+N+O+P+Q+R+f+S+T+U+V+W+X+Y+Z+`+ @.@+@@@#@$@%@&@*@=@-@;@>@,@'@)@D+C+C+C+C+",
"!@!@!@!@!@!@!@!@!@!@!@!@!@!@~@{@]@^@/@(@_@:@<@[@}@|@1@2@3@4@5@6@7@8@9@0@a@b@c@d@e@f@g@h@i@j@k@l@m@n@o@p@q@r@s@t@!@!@!@!@",
"u@u@u@u@u@u@u@u@u@u@u@u@u@v@w@x@y@z@A@B@C@D@E@F@G@H@I@J@K@L@7@M@N@O@P@Q@R@S@T@U@V@W@X@Y@Z@`@ #.#+#@###$#%#&#*#=#v@u@u@u@",
"-#-#-#-#-#-#-#-#-#-#-#-#-#;#>#,#'#)#!#~#{#]#^#/#(#_#:#<#[#7@}#|#1#2#3#4#5#6#7#8#9#0#a#b#c#d#e#f#g#h#i#j#k#l#m#n#o#-#-#-#",
"p#p#p#p#p#p#p#p#p#p#p#p#p#q#r#s#t#u#v#w#x#y#z#A#B#C#D#E#F#G#H#I#J#K#L#M#N#O#P#Q#R#S#T#U#V#W#X#Y#Z#`# $.$+$@$#$$$%$p#p#p#",
"&$&$&$&$&$&$&$&$&$&$&$&$&$*$=$-$;$>$,$'$)$!$~${$]$^$/$($_$:$<$[$}$|$1$2$3$4$5$6$7$U@0#8$9$0$a$b$c$d$w#e$f$g$h$i$j$&$&$&$",
"q#q#q#q#q#q#q#q#q#q#q#q#q#k$l$m$n$o$N+p$q$~$r$s$t$u$v$w$x$y$z$A$B$C$D$E$F$G$H$I$J$K$L$M$N$O$P$Q$R$S$T$U$V$W$X$Y$Z$q#q#q#",
"`$`$`$`$`$`$`$`$`$`$`$`$`$ %.%+%@%#%$%%%&%*%=%-%;%>%,%'%)%!%~%{%]%^%/%(%_%:%<%[%}%|%1%W@2%3%4%5%6%7%8%9%0%a%b%c%d%`$`$`$",
"e%e%e%e%e%e%e%e%e%e%e%e%e%f%g%h%i%j%k%l%m%n%o%p%q%r%s%t%u%v%w%x%y%z%A%B%C%D%E%F%G%H%I%J%K%L%M%N%O%P%Q%R%S%T%U%V%W%e%e%e%",
"X%X%X%X%X%X%X%X%X%X%X%X%X%Y%Z%`% &.&+&@&#&$&%&&&*&=&-&;&>&,&'&)&!&~&{&]&^&/&(&_&:&<&[&}&|&1&2&3&4&#&5&6&7&8&9&0&a&X%X%X%",
"X%X%X%X%X%X%X%X%X%X%X%X%X%Y%b&c&d&e&f&g&h&i&j&k&l&m&n&o&p&q&r&s&t&u&v&w&x&y&z&A&B&C&D&E&F&G&H&I&J&K&L&M&N&O&P&Q&R&X%X%X%",
"S&S&S&S&S&S&S&S&S&S&S&S&S&Y%T&U&V&W&X&Y&Z&`& *.*+*@*#*$*%*&*,&**=*-*;*>*,*'*)*!*~*{*]*^*/*(*_*:*<*4&[*X&}*|*1*r#2*S&S&S&",
"S&S&S&S&S&S&S&S&S&S&S&S&S&Y%3*4*5*6*7*8*9*0*a*b*c*d*e*f*g*h*i*j*k*l*m*n*o*p*q*r*s*t*u*v*w*x*y*z*A*B*C*L&D*E*F*G*H*S&S&S&",
"S&S&S&S&S&S&S&S&S&S&S&S&S&I*J*K*L*M*N*O*P*Q*R*S*T*U*V*W*X*Y*Z*`* =.=+=@=#=$=%=&=*===-=;=>=,='=)=!=~=O*{=]=^=0&r@/=S&S&S&",
"(=(=(=(=(=(=(=(=(=(=(=(=(=I*_=:=<=[=}=|=1=2=3=4=5=6=7=8=9=0=a=b=c=d=e=f=g=h=i=j=k=l=m=n=o=p=q=r=s=t=O*u=v=w=x=y=z=(=(=(=",
"(=(=(=(=(=(=(=(=(=(=(=(=(=z=A=B=C=D=u=E=F=G=H=I=J=K=L=M=N=O=P=Q=R=S=T=U=i=V=W=X=Y=Z=`= -.-+-@-#-$-%-&-*-=-F*--;-z=(=(=(=",
"(=(=(=(=(=(=(=(=(=(=(=(=(=(=Y%>-,-'-)-!-~-{-]-^-/-(-_-:-<-[-}-|-1-2-3-4-5-6-7-8-9-0-a-b-c-d-e-q=f-g-h-i-j-k-*#l-(=(=(=(=",
"z=z=z=z=z=z=z=z=z=z=z=z=z=z=m-n-b&o-p-q-r-s-t-u-v-w-x-y-z-A-B-C-D-E-F-G-H-I-J-K-L-M-N-O-P-Q-R-S-T-:*U-V-W-X-Y-I*z=z=z=z=",
"z=z=z=z=z=z=z=z=z=z=z=z=z=z=z=Y%Z-T&`- ;.;+;^-@;#;$;%;&;*;=;-;;;>;,;';);!;~;{;];^;/;(;_;:;<;[;};|;1;2;3;N.4;H*z=z=z=z=z=",
"z=z=z=z=z=z=z=z=z=z=z=z=z=z=z=m-A=5;6;7;8;9;0;a;b;c;d;e;f;g;h;i;j;k;l;m;n;o;p;q;r;s;t;u;v;w;x;y;z;A;B;V%C;r@I*z=z=z=z=z=",
"I*I*I*I*I*I*I*I*I*I*I*I*I*I*I*I*n-D;E;F;G;H;+-I;J;K;L;M;N;O;P;Q;R;S;T;U;V;W;X;Y;Z;`; >.>+>@>#>$>%>&>*>m#a.=>I*I*I*I*I*I*",
"I*I*I*I*I*I*I*I*I*I*I*I*I*I*I*I*->1*x@3*;>>>,>'>)>!>~>{>]>^>/>(>_>:><>[>}>|>1>2>3>4>5>6>7>8>9>0>a>b>G*c>;-m-I*I*I*I*I*I*",
"d>d>d>d>d>d>d>d>d>d>d>d>d>d>d>d>d>e>Y%f>g>h>i>j>k>l>m>n>o>p>q>r>s>t>u>v>w>x>y>z>A>B>C>D>E>F>G>H>I>J>K>r#L>d>d>d>d>d>d>d>"};
